;FLAVOR:RepRap
;TIME:699
;Filament used: 0.409973m
;Layer height: 0.21875
;Generated with Cura_SteamEngine 3.1.0
T0
M190 S60
M104 S210
M109 S210
M82 ; absolute extrusion mode
G21        ;metric values
G90        ;absolute positioning
M82        ;set extruder to absolute mode
M107       ;start with the fan off
G28 X0 Y0  ;move X/Y to min endstops
G28 Z0     ;move Z to min endstops
G1 Z15.0 F6000 ;move the platform down 15mm
G92 E0                  ;zero the extruded length
G1 F200 E3              ;extrude 3mm of feed stock
G92 E0                  ;zero the extruded length again
G1 F6000
M117 Printing...
M83 ; relative extrusion mode
;LAYER_COUNT:23
;LAYER:0
M107
G0 F1000 X7.758 Y7.734 Z0.218
;TYPE:SKIRT
G1 F600 X8.145 Y7.408 E0.01834
G1 X8.578 Y7.147 E0.01833
G1 X9.046 Y6.957 E0.01831
G1 X9.539 Y6.844 E0.01834
G1 X10.009 Y6.809 E0.01709
G1 X109.991 Y6.81 E3.6247
G1 X110.495 Y6.85 E0.01833
G1 X110.986 Y6.969 E0.01832
G1 X111.453 Y7.163 E0.01833
G1 X111.883 Y7.429 E0.01833
G1 X112.266 Y7.759 E0.01833
G1 X112.592 Y8.146 E0.01834
G1 X112.853 Y8.579 E0.01833
G1 X113.043 Y9.047 E0.01831
G1 X113.156 Y9.54 E0.01834
G1 X113.191 Y10.01 E0.01709
G1 X113.191 Y109.991 E3.62467
G1 X113.151 Y110.495 E0.01833
G1 X113.032 Y110.986 E0.01832
G1 X112.838 Y111.453 E0.01833
G1 X112.572 Y111.883 E0.01833
G1 X112.242 Y112.266 E0.01833
G1 X111.855 Y112.592 E0.01834
G1 X111.422 Y112.853 E0.01833
G1 X110.954 Y113.043 E0.01831
G1 X110.461 Y113.156 E0.01834
G1 X109.991 Y113.191 E0.01709
G1 X10.009 Y113.191 E3.6247
G1 X9.505 Y113.151 E0.01833
G1 X9.014 Y113.032 E0.01832
G1 X8.547 Y112.838 E0.01833
G1 X8.117 Y112.572 E0.01833
G1 X7.734 Y112.242 E0.01833
G1 X7.408 Y111.855 E0.01834
G1 X7.147 Y111.422 E0.01833
G1 X6.957 Y110.954 E0.01831
G1 X6.844 Y110.461 E0.01834
G1 X6.809 Y109.991 E0.01709
G1 X6.809 Y10.009 E3.6247
G1 X6.849 Y9.505 E0.01833
G1 X6.968 Y9.014 E0.01832
G1 X7.162 Y8.547 E0.01833
G1 X7.428 Y8.117 E0.01833
G1 X7.758 Y7.734 E0.01833
G1 F2400 E-4
G0 F1000 X9.374 Y16.266
G0 X9.381 Y16.31
G0 X11.416 Y27.055
G0 X11.427 Y27.118
G0 X24.16 Y94.339
G0 X24.217 Y95.611
G0 X24.3 Y95.741
G0 X24.4 Y95.741
;TYPE:WALL-INNER
G1 F2400 E4
G1 F600 X24.4 Y95.799 E0.0021
G1 X24.331 Y95.771 E0.00002
G1 X24.259 Y95.741 E0.00066
G1 X24.23 Y95.671 E0.00135
G1 X24.201 Y95.6 E0.00278
G1 X24.259 Y95.6
G1 X24.4 Y95.6
G1 X24.4 Y95.741
G1 F2400 E-4
G0 F1000 X24.3 Y95.741
G0 X24.217 Y95.611
G0 X24.16 Y94.339
G0 X24.032 Y94.374
G0 X23.988 Y94.385
G0 X16.594 Y96.413
G0 X16.531 Y96.43
G0 X16.453 Y96.453
G0 X15.6 Y95.6
;TYPE:WALL-OUTER
G1 F2400 E4
G1 F600 X15.6 Y100.2 E0.16677
G1 X19.4 Y100.2 E0.13776
G1 X19.517 Y100.2 E0.00424
G1 X23.87 Y95.847 E0.22318
G1 X23.768 Y95.6 E0.00969
G1 X15.6 Y95.6 E0.29612
G0 F1000 X15.6 Y95.8
G1 F2400 E-4
G0 F1000 X16.453 Y96.453
G0 X16.438 Y96.47
G0 X16.401 Y96.522
G0 X14.397 Y99.276
G0 X14.372 Y99.312
G0 X14.347 Y99.347
G0 X15.2 Y100.2
G1 F2400 E4
G1 F600 X15.2 Y95.6 E0.16677
G1 X15.2 Y95.2 E0.0145
G1 X15.6 Y95.2 E0.0145
G1 X23.768 Y95.2 E0.29612
G1 X24.517 Y95.2 E0.02715
G1 X55.2 Y64.517 E1.57313
G1 X55.2 Y64.4 E0.00424
G1 X55.2 Y55.6 E0.31903
G1 X55.2 Y55.483 E0.00424
G1 X19.517 Y19.8 E1.82948
G1 X19.4 Y19.8 E0.00424
G1 X10.6 Y19.8 E0.31903
G1 X10.6 Y99.8 E2.90028
G1 X10.2 Y99.8 E0.0145
G1 X10.2 Y19.8 E2.90028
G1 X10.2 Y19.4 E0.0145
G1 X10.2 Y10.6 E0.31903
G1 X10.2 Y10.2 E0.0145
G1 X10.6 Y10.2 E0.0145
G1 X19.4 Y10.2 E0.31903
G1 X19.8 Y10.2 E0.0145
G1 X100.2 Y10.2 E2.91479
G1 X100.6 Y10.2 E0.0145
G1 X109.4 Y10.2 E0.31903
G1 X109.8 Y10.2 E0.0145
G1 X109.8 Y10.6 E0.0145
G1 X109.8 Y19.4 E0.31903
G1 X109.8 Y19.8 E0.0145
G1 X109.8 Y100.2 E2.91479
G1 X109.8 Y100.6 E0.0145
G1 X109.8 Y109.4 E0.31903
G1 X109.8 Y109.8 E0.0145
G1 X109.4 Y109.8 E0.0145
G1 X100.6 Y109.8 E0.31903
G1 X100.2 Y109.8 E0.0145
G1 X19.8 Y109.8 E2.91479
G1 X19.4 Y109.8 E0.0145
G1 X10.6 Y109.8 E0.31903
G1 X10.2 Y109.8 E0.0145
G1 X10.2 Y109.4 E0.0145
G1 X10.2 Y100.6 E0.31903
G1 X10.2 Y100.2 E0.0145
G1 X10.6 Y100.2 E0.0145
G1 X15.2 Y100.2 E0.16677
G0 F1000 X15.2 Y100
G0 X15.6 Y100.6
G1 F600 X15.6 Y104.4 E0.13776
G1 X19.4 Y104.4 E0.13776
G1 X19.4 Y100.6 E0.13776
G1 X15.6 Y100.6 E0.13776
G0 F1000 X15.6 Y100.8
G1 F2400 E-4
G0 F1000 X14.347 Y101.453
G0 X11.453 Y101.453
G0 X10.6 Y100.6
G1 F2400 E4
G1 F600 X10.6 Y109.4 E0.31903
G1 X19.4 Y109.4 E0.31903
G1 X19.4 Y104.8 E0.16677
G1 X15.6 Y104.8 E0.13776
G1 X15.2 Y104.8 E0.0145
G1 X15.2 Y104.4 E0.0145
G1 X15.2 Y100.6 E0.13776
G1 X10.6 Y100.6 E0.16677
G0 F1000 X10.6 Y100.8
G1 F2400 E-4
G0 F1000 X11.453 Y101.453
G0 X14.37 Y102.315
G0 X14.413 Y102.326
G0 X16.385 Y102.908
G0 X16.428 Y102.92
G0 X18.547 Y103.547
G0 X19.8 Y104.4
G1 F2400 E4
G1 F600 X24.4 Y104.4 E0.16677
G1 X24.4 Y96.232 E0.29612
G1 X24.153 Y96.13 E0.00969
G1 X19.8 Y100.483 E0.22318
G1 X19.8 Y100.6 E0.00424
G1 X19.8 Y104.4 E0.13776
G0 F1000 X20 Y104.4
G0 X19.8 Y104.8
G1 F600 X19.8 Y109.4 E0.16677
G1 X100.2 Y109.4 E2.91479
G1 X100.2 Y100.6 E0.31903
G1 X100.2 Y100.483 E0.00424
G1 X64.517 Y64.8 E1.82948
G1 X64.4 Y64.8 E0.00424
G1 X55.6 Y64.8 E0.31903
G1 X55.483 Y64.8 E0.00424
G1 X24.8 Y95.483 E1.57313
G1 X24.8 Y96.232 E0.02715
G1 X24.8 Y104.4 E0.29612
G1 X24.8 Y104.8 E0.0145
G1 X24.4 Y104.8 E0.0145
G1 X19.8 Y104.8 E0.16677
G0 F1000 X19.8 Y105
G1 F2400 E-4
G0 F1000 X20.653 Y105.653
G0 X25.653 Y105.653
G0 X25.661 Y95.84
G0 X30.819 Y90.618
G0 X36.83 Y81.729
G0 X36.855 Y81.692
G0 X54.339 Y55.84
G0 X55.6 Y55.6
G1 F2400 E4
G1 F600 X55.6 Y64.4 E0.31903
G1 X64.4 Y64.4 E0.31903
G1 X64.4 Y55.6 E0.31903
G1 X55.6 Y55.6 E0.31903
G0 F1000 X55.6 Y55.8
G1 F2400 E-4
G0 F1000 X54.339 Y55.84
G0 X54.178 Y55.63
G0 X54.152 Y55.595
G0 X45.069 Y43.627
G0 X45.043 Y43.592
G0 X20.653 Y11.453
G0 X19.8 Y10.6
G1 F2400 E4
G1 F600 X19.8 Y19.4 E0.31903
G1 X19.8 Y19.517 E0.00424
G1 X55.483 Y55.2 E1.82948
G1 X55.6 Y55.2 E0.00424
G1 X64.4 Y55.2 E0.31903
G1 X64.517 Y55.2 E0.00424
G1 X100.2 Y19.517 E1.82948
G1 X100.2 Y19.4 E0.00424
G1 X100.2 Y10.6 E0.31903
G1 X19.8 Y10.6 E2.91479
G0 F1000 X19.8 Y10.8
G1 F2400 E-4
G0 F1000 X18.547 Y11.453
G0 X11.453 Y11.453
G0 X10.6 Y10.6
G1 F2400 E4
G1 F600 X10.6 Y19.4 E0.31903
G1 X19.4 Y19.4 E0.31903
G1 X19.4 Y10.6 E0.31903
G1 X10.6 Y10.6 E0.31903
G0 F1000 X10.6 Y10.8
G1 F2400 E-4
G0 F1000 X11.453 Y11.453
G0 X18.571 Y11.453
G0 X18.615 Y11.453
G0 X20.585 Y11.453
G0 X20.629 Y11.453
G0 X99.347 Y11.453
G0 X100.6 Y10.6
G1 F2400 E4
G1 F600 X100.6 Y19.4 E0.31903
G1 X109.4 Y19.4 E0.31903
G1 X109.4 Y10.6 E0.31903
G1 X100.6 Y10.6 E0.31903
G0 F1000 X100.6 Y10.8
G1 F2400 E-4
G0 F1000 X101.453 Y11.453
G0 X101.425 Y15.388
G0 X101.424 Y15.468
G0 X101.388 Y20.584
G0 X101.388 Y20.628
G0 X100.84 Y99.339
G0 X100.6 Y100.6
G1 F2400 E4
G1 F600 X100.6 Y109.4 E0.31903
G1 X109.4 Y109.4 E0.31903
G1 X109.4 Y100.6 E0.31903
G1 X100.6 Y100.6 E0.31903
G0 F1000 X100.6 Y100.8
G1 F2400 E-4
G0 F1000 X101.453 Y101.453
G0 X101.523 Y101.43
G0 X101.585 Y101.413
G0 X108.412 Y99.386
G0 X108.455 Y99.374
G0 X108.547 Y99.347
G0 X109.4 Y100.2
M104 S200
G1 F2400 E4
G1 F600 X109.4 Y19.8 E2.91479
G1 X100.6 Y19.8 E0.31903
G1 X100.483 Y19.8 E0.00424
G1 X64.8 Y55.483 E1.82948
G1 X64.8 Y55.6 E0.00424
G1 X64.8 Y64.4 E0.31903
G1 X64.8 Y64.517 E0.00424
G1 X100.483 Y100.2 E1.82948
G1 X100.6 Y100.2 E0.00424
G1 X109.4 Y100.2 E0.31903
G0 F1000 X109.4 Y100
G1 F2400 E-4
G0 F1000 X108.547 Y99.347
G0 X100.457 Y99.002
G0 X100.413 Y99.002
G0 X97.467 Y98.877
G0 X97.423 Y98.877
G0 X25.661 Y95.84
G0 X24.389 Y95.783
G0 X24.3 Y95.741
G0 X24.4 Y95.741
;TIME_ELAPSED:224.319234
;LAYER:1
M140 S60
M106 S255
G0 F3500 X24.4 Y95.741 Z0.436
;TYPE:WALL-INNER
G1 F2400 E4
G1 F2100 X24.4 Y95.799 E0.0021
G1 X24.331 Y95.771 E0.00002
G1 X24.259 Y95.741 E0.00066
G1 X24.23 Y95.671 E0.00135
G1 X24.201 Y95.6 E0.00278
G1 X24.259 Y95.6
G1 X24.4 Y95.6
G1 X24.4 Y95.741
G1 F2400 E-4
G0 F3500 X24.3 Y95.741
G0 X24.217 Y95.611
G0 X24.16 Y94.339
G0 X24.032 Y94.374
G0 X23.988 Y94.385
G0 X16.594 Y96.413
G0 X16.531 Y96.43
G0 X16.453 Y96.453
G0 X15.6 Y95.6
;TYPE:WALL-OUTER
G1 F2400 E4
G1 F1200 X15.6 Y100.2 E0.16677
G1 X19.4 Y100.2 E0.13776
G1 X19.517 Y100.2 E0.00424
G1 X23.87 Y95.847 E0.22318
G1 X23.768 Y95.6 E0.00969
G1 X15.6 Y95.6 E0.29612
G0 F3500 X15.6 Y95.8
G1 F2400 E-4
G0 F3500 X16.453 Y96.453
G0 X16.438 Y96.47
G0 X16.401 Y96.522
G0 X14.397 Y99.276
G0 X14.372 Y99.312
G0 X14.347 Y99.347
G0 X15.2 Y100.2
G1 F2400 E4
G1 F1200 X15.2 Y95.6 E0.16677
G1 X15.2 Y95.2 E0.0145
G1 X15.6 Y95.2 E0.0145
G1 X23.768 Y95.2 E0.29612
G1 X24.517 Y95.2 E0.02715
G1 X55.2 Y64.517 E1.57313
G1 X55.2 Y64.4 E0.00424
G1 X55.2 Y55.6 E0.31903
G1 X55.2 Y55.483 E0.00424
G1 X19.517 Y19.8 E1.82948
G1 X19.4 Y19.8 E0.00424
G1 X10.6 Y19.8 E0.31903
G1 X10.6 Y99.8 E2.90028
G1 X10.2 Y99.8 E0.0145
G1 X10.2 Y19.8 E2.90028
G1 X10.2 Y19.4 E0.0145
G1 X10.2 Y10.6 E0.31903
G1 X10.2 Y10.2 E0.0145
G1 X10.6 Y10.2 E0.0145
G1 X19.4 Y10.2 E0.31903
G1 X19.8 Y10.2 E0.0145
G1 X100.2 Y10.2 E2.91479
G1 X100.6 Y10.2 E0.0145
G1 X109.4 Y10.2 E0.31903
G1 X109.8 Y10.2 E0.0145
G1 X109.8 Y10.6 E0.0145
G1 X109.8 Y19.4 E0.31903
G1 X109.8 Y19.8 E0.0145
G1 X109.8 Y100.2 E2.91479
G1 X109.8 Y100.6 E0.0145
G1 X109.8 Y109.4 E0.31903
G1 X109.8 Y109.8 E0.0145
G1 X109.4 Y109.8 E0.0145
G1 X100.6 Y109.8 E0.31903
G1 X100.2 Y109.8 E0.0145
G1 X19.8 Y109.8 E2.91479
G1 X19.4 Y109.8 E0.0145
G1 X10.6 Y109.8 E0.31903
G1 X10.2 Y109.8 E0.0145
G1 X10.2 Y109.4 E0.0145
G1 X10.2 Y100.6 E0.31903
G1 X10.2 Y100.2 E0.0145
G1 X10.6 Y100.2 E0.0145
G1 X15.2 Y100.2 E0.16677
G0 F3500 X15.2 Y100
G0 X15.6 Y100.6
G1 F1200 X15.6 Y104.4 E0.13776
G1 X19.4 Y104.4 E0.13776
G1 X19.4 Y100.6 E0.13776
G1 X15.6 Y100.6 E0.13776
G0 F3500 X15.6 Y100.8
G1 F2400 E-4
G0 F3500 X14.347 Y101.453
G0 X11.453 Y101.453
G0 X10.6 Y100.6
G1 F2400 E4
G1 F1200 X10.6 Y109.4 E0.31903
G1 X19.4 Y109.4 E0.31903
G1 X19.4 Y104.8 E0.16677
G1 X15.6 Y104.8 E0.13776
G1 X15.2 Y104.8 E0.0145
G1 X15.2 Y104.4 E0.0145
G1 X15.2 Y100.6 E0.13776
G1 X10.6 Y100.6 E0.16677
G0 F3500 X10.6 Y100.8
G1 F2400 E-4
G0 F3500 X11.453 Y101.453
G0 X14.37 Y102.315
G0 X14.413 Y102.326
G0 X16.385 Y102.908
G0 X16.428 Y102.92
G0 X18.547 Y103.547
G0 X19.8 Y104.4
G1 F2400 E4
G1 F1200 X24.4 Y104.4 E0.16677
G1 X24.4 Y96.232 E0.29612
G1 X24.153 Y96.13 E0.00969
G1 X19.8 Y100.483 E0.22318
G1 X19.8 Y100.6 E0.00424
G1 X19.8 Y104.4 E0.13776
G0 F3500 X20 Y104.4
G0 X19.8 Y104.8
G1 F1200 X19.8 Y109.4 E0.16677
G1 X100.2 Y109.4 E2.91479
G1 X100.2 Y100.6 E0.31903
G1 X100.2 Y100.483 E0.00424
G1 X64.517 Y64.8 E1.82948
G1 X64.4 Y64.8 E0.00424
G1 X55.6 Y64.8 E0.31903
G1 X55.483 Y64.8 E0.00424
G1 X24.8 Y95.483 E1.57313
G1 X24.8 Y96.232 E0.02715
G1 X24.8 Y104.4 E0.29612
G1 X24.8 Y104.8 E0.0145
G1 X24.4 Y104.8 E0.0145
G1 X19.8 Y104.8 E0.16677
G0 F3500 X19.8 Y105
G1 F2400 E-4
G0 F3500 X20.653 Y105.653
G0 X25.653 Y105.653
G0 X25.661 Y95.84
G0 X30.819 Y90.618
G0 X36.83 Y81.729
G0 X36.855 Y81.692
G0 X54.339 Y55.84
G0 X55.6 Y55.6
G1 F2400 E4
G1 F1200 X55.6 Y64.4 E0.31903
G1 X64.4 Y64.4 E0.31903
G1 X64.4 Y55.6 E0.31903
G1 X55.6 Y55.6 E0.31903
G0 F3500 X55.6 Y55.8
G1 F2400 E-4
G0 F3500 X54.339 Y55.84
G0 X54.178 Y55.63
G0 X54.152 Y55.595
G0 X45.069 Y43.627
G0 X45.043 Y43.592
G0 X20.653 Y11.453
G0 X19.8 Y10.6
G1 F2400 E4
G1 F1200 X19.8 Y19.4 E0.31903
G1 X19.8 Y19.517 E0.00424
G1 X55.483 Y55.2 E1.82948
G1 X55.6 Y55.2 E0.00424
G1 X64.4 Y55.2 E0.31903
G1 X64.517 Y55.2 E0.00424
G1 X100.2 Y19.517 E1.82948
G1 X100.2 Y19.4 E0.00424
G1 X100.2 Y10.6 E0.31903
G1 X19.8 Y10.6 E2.91479
G0 F3500 X19.8 Y10.8
G1 F2400 E-4
G0 F3500 X18.547 Y11.453
G0 X11.453 Y11.453
G0 X10.6 Y10.6
G1 F2400 E4
G1 F1200 X10.6 Y19.4 E0.31903
G1 X19.4 Y19.4 E0.31903
G1 X19.4 Y10.6 E0.31903
G1 X10.6 Y10.6 E0.31903
G0 F3500 X10.6 Y10.8
G1 F2400 E-4
G0 F3500 X11.453 Y11.453
G0 X18.571 Y11.453
G0 X18.615 Y11.453
G0 X20.585 Y11.453
G0 X20.629 Y11.453
G0 X99.347 Y11.453
G0 X100.6 Y10.6
G1 F2400 E4
G1 F1200 X100.6 Y19.4 E0.31903
G1 X109.4 Y19.4 E0.31903
G1 X109.4 Y10.6 E0.31903
G1 X100.6 Y10.6 E0.31903
G0 F3500 X100.6 Y10.8
G1 F2400 E-4
G0 F3500 X101.453 Y11.453
G0 X101.425 Y15.388
G0 X101.424 Y15.468
G0 X101.388 Y20.584
G0 X101.388 Y20.628
G0 X100.84 Y99.339
G0 X100.6 Y100.6
G1 F2400 E4
G1 F1200 X100.6 Y109.4 E0.31903
G1 X109.4 Y109.4 E0.31903
G1 X109.4 Y100.6 E0.31903
G1 X100.6 Y100.6 E0.31903
G0 F3500 X100.6 Y100.8
G1 F2400 E-4
G0 F3500 X101.453 Y101.453
G0 X101.523 Y101.43
G0 X101.585 Y101.413
G0 X108.412 Y99.386
G0 X108.455 Y99.374
G0 X108.547 Y99.347
G0 X109.4 Y100.2
G1 F2400 E4
G1 F1200 X109.4 Y19.8 E2.91479
G1 X100.6 Y19.8 E0.31903
G1 X100.483 Y19.8 E0.00424
G1 X64.8 Y55.483 E1.82948
G1 X64.8 Y55.6 E0.00424
G1 X64.8 Y64.4 E0.31903
G1 X64.8 Y64.517 E0.00424
G1 X100.483 Y100.2 E1.82948
G1 X100.6 Y100.2 E0.00424
G1 X109.4 Y100.2 E0.31903
G0 F3500 X109.4 Y100
G1 F2400 E-4
G0 F3500 X108.547 Y99.347
G0 X65.627 Y60.494
G0 X65.595 Y60.464
G0 X63.604 Y58.662
G0 X63.547 Y56.453
G0 X61.103 Y56.398
G0 X58.897 Y54.401
G0 X55.84 Y54.339
G0 X26.729 Y25.281
G0 X18.605 Y17.926
G0 X18.572 Y17.897
G0 X11.453 Y11.453
G0 X10.6 Y10.6
;TIME_ELAPSED:308.913579
;LAYER:2
G0 F6000 X10.6 Y10.6 Z0.654
;TYPE:WALL-OUTER
G1 F2400 E4
G1 F1800 X10.6 Y19.4 E0.31903
G1 X19.4 Y19.4 E0.31903
G1 X19.4 Y10.6 E0.31903
G1 X10.6 Y10.6 E0.31903
G0 F6000 X10.6 Y10.8
G0 X10.5 Y10.8
G0 X10.572 Y10.572
G0 X19.7 Y10.6
G0 X19.8 Y10.6
G1 F1800 X19.8 Y19.4 E0.31903
G1 X19.8 Y19.8 E0.0145
G1 X19.4 Y19.8 E0.0145
G1 X10.6 Y19.8 E0.31903
G1 X10.2 Y19.8 E0.0145
G1 X10.2 Y19.4 E0.0145
G1 X10.2 Y10.6 E0.31903
G1 X10.2 Y10.2 E0.0145
G1 X10.6 Y10.2 E0.0145
G1 X19.4 Y10.2 E0.31903
G1 X19.8 Y10.2 E0.0145
G1 X19.8 Y10.6 E0.0145
G0 F6000 X19.8 Y10.8
G1 F2400 E-4
G0 F6000 X19.7 Y10.8
G0 X19.786 Y19.786
G0 X20.665 Y19.786
G0 X55.214 Y54.335
G0 X55.214 Y55.214
G0 X55.53 Y55.53
G0 X55.6 Y55.6
G1 F2400 E4
G1 F1800 X55.6 Y64.4 E0.31903
G1 X64.4 Y64.4 E0.31903
G1 X64.4 Y55.6 E0.31903
G1 X55.6 Y55.6 E0.31903
G0 F6000 X55.6 Y55.8
G0 X55.5 Y55.8
G0 X55.572 Y55.572
G0 X64.7 Y55.6
G0 X64.8 Y55.6
G1 F1800 X64.8 Y64.4 E0.31903
G1 X64.8 Y64.8 E0.0145
G1 X64.4 Y64.8 E0.0145
G1 X55.6 Y64.8 E0.31903
G1 X55.2 Y64.8 E0.0145
G1 X55.2 Y64.4 E0.0145
G1 X55.2 Y55.6 E0.31903
G1 X55.2 Y55.2 E0.0145
G1 X55.6 Y55.2 E0.0145
G1 X64.4 Y55.2 E0.31903
G1 X64.8 Y55.2 E0.0145
G1 X64.8 Y55.6 E0.0145
G0 F6000 X64.8 Y55.8
G1 F2400 E-4
G0 F6000 X64.7 Y55.8
G0 X64.428 Y64.428
G0 X55.214 Y64.786
G0 X54.335 Y64.786
G0 X24.786 Y94.335
G0 X24.786 Y95.214
G0 X15.53 Y95.53
G0 X15.6 Y95.6
G1 F2400 E4
G1 F1800 X15.6 Y100.2 E0.16677
G1 X19.4 Y100.2 E0.13776
G1 X19.8 Y100.2 E0.0145
G1 X19.8 Y100.6 E0.0145
G1 X19.8 Y104.4 E0.13776
G1 X24.4 Y104.4 E0.16677
G1 X24.4 Y95.6 E0.31903
G1 X15.6 Y95.6 E0.31903
G0 F6000 X15.6 Y95.8
G0 X15.5 Y95.8
G0 X15.53 Y100.53
G0 X15.6 Y100.6
G1 F1800 X15.6 Y104.4 E0.13776
G1 X19.4 Y104.4 E0.13776
G1 X19.4 Y100.6 E0.13776
G1 X15.6 Y100.6 E0.13776
G0 F6000 X15.6 Y100.8
G0 X15.5 Y100.8
G0 X15.256 Y100.595
G0 X10.53 Y100.53
G0 X10.6 Y100.6
G1 F1800 X10.6 Y109.4 E0.31903
G1 X19.4 Y109.4 E0.31903
G1 X19.4 Y104.8 E0.16677
G1 X15.6 Y104.8 E0.13776
G1 X15.2 Y104.8 E0.0145
G1 X15.2 Y104.4 E0.0145
G1 X15.2 Y100.6 E0.13776
G1 X10.6 Y100.6 E0.16677
G0 F6000 X10.6 Y100.8
G0 X10.5 Y100.8
G0 X10.572 Y100.572
G0 X15.228 Y100.572
G0 X15.572 Y104.428
G0 X19.73 Y104.73
G0 X19.8 Y104.8
G1 F1800 X19.8 Y109.4 E0.16677
G1 X19.8 Y109.8 E0.0145
G1 X19.4 Y109.8 E0.0145
G1 X10.6 Y109.8 E0.31903
G1 X10.2 Y109.8 E0.0145
G1 X10.2 Y109.4 E0.0145
G1 X10.2 Y100.6 E0.31903
G1 X10.2 Y100.2 E0.0145
G1 X10.6 Y100.2 E0.0145
G1 X15.2 Y100.2 E0.16677
G1 X15.2 Y95.6 E0.16677
G1 X15.2 Y95.2 E0.0145
G1 X15.6 Y95.2 E0.0145
G1 X24.4 Y95.2 E0.31903
G1 X24.8 Y95.2 E0.0145
G1 X24.8 Y95.6 E0.0145
G1 X24.8 Y104.4 E0.31903
G1 X24.8 Y104.8 E0.0145
G1 X24.4 Y104.8 E0.0145
G1 X19.8 Y104.8 E0.16677
G0 F6000 X19.8 Y105
G1 F2400 E-4
G0 F6000 X19.7 Y105
G0 X19.772 Y104.772
G0 X24.428 Y104.428
G0 X24.78 Y100.53
G0 X25.665 Y100.53
G0 X99.335 Y100.53
G0 X100.22 Y100.53
G0 X100.53 Y100.53
G0 X100.6 Y100.6
G1 F2400 E4
G1 F1800 X100.6 Y109.4 E0.31903
G1 X109.4 Y109.4 E0.31903
G1 X109.4 Y100.6 E0.31903
G1 X100.6 Y100.6 E0.31903
G0 F6000 X100.6 Y100.8
G0 X100.5 Y100.8
G0 X100.572 Y100.572
G0 X103.082 Y100.572
G0 X109.7 Y100.6
G0 X109.8 Y100.6
G1 F1800 X109.8 Y109.4 E0.31903
G1 X109.8 Y109.8 E0.0145
G1 X109.4 Y109.8 E0.0145
