;FLAVOR:RepRap
;TIME:3264
;Filament used: 0.55856m
;Layer height: 0.04375
;MINX:47.299
;MINY:39.921
;MINZ:0.306
;MAXX:72.874
;MAXY:80.562
;MAXZ:15.044
;Generated with Cura_SteamEngine 4.3.0
T0
M190 S65
M104 S205
M109 S205
M82 ;absolute extrusion mode
G21        ;metric values
G90        ;absolute positioning
M82        ;set extruder to absolute mode
M107       ;start with the fan off
G28 X0 Y0  ;move X/Y to min endstops
G28 Z0     ;move Z to min endstops
G1 Z15.0 F6000 ;move the platform down 15mm
G92 E0                  ;zero the extruded length
G1 F200 E3              ;extrude 3mm of feed stock
G92 E0                  ;zero the extruded length again
G1 F6000
M117 Printing...
M83 ;relative extrusion mode
G1 F2400 E-2.5
;LAYER_COUNT:323
;LAYER:-12
M107
G0 F7200 X53.051 Y43.545 Z0.306
;TYPE:SUPPORT-INTERFACE
G1 F2400 E2.5
G1 F1125 X53.174 Y43.401 E0.01927
G1 X53.375 Y43.179 E0.03048
G1 X53.649 Y42.921 E0.0383
G1 X54.096 Y42.559 E0.05854
G1 X54.262 Y42.437 E0.02097
G1 X55.079 Y41.892 E0.09995
G1 X55.191 Y41.824 E0.01334
G1 X55.524 Y41.632 E0.03912
G1 X55.78 Y41.505 E0.02908
G1 X56.036 Y41.397 E0.02828
G1 X56.336 Y41.292 E0.03235
G1 X56.601 Y41.218 E0.028
G1 X56.987 Y41.137 E0.04014
G1 X57.635 Y40.956 E0.06848
G1 X58.697 Y40.486 E0.1182
G1 X58.949 Y40.39 E0.02745
G1 X59.224 Y40.306 E0.02926
G1 X59.514 Y40.236 E0.03036
G1 X59.786 Y40.188 E0.02811
G1 X60.075 Y40.156 E0.02959
G1 X60.387 Y40.142 E0.03179
G1 X60.631 Y40.147 E0.02484
G1 X60.982 Y40.179 E0.03587
G1 X61.495 Y40.265 E0.05294
G1 X61.715 Y40.312 E0.0229
G1 X62.405 Y40.491 E0.07255
G1 X62.674 Y40.554 E0.02812
G1 X63.067 Y40.637 E0.04088
G1 X63.451 Y40.741 E0.04049
G1 X63.714 Y40.831 E0.02829
G1 X64.223 Y41.046 E0.05624
G1 X65.481 Y41.669 E0.14287
G1 X65.605 Y41.737 E0.01439
G1 X65.918 Y41.917 E0.03675
G1 X66.17 Y42.085 E0.03082
G1 X66.401 Y42.261 E0.02956
G1 X66.623 Y42.453 E0.02987
G1 X66.817 Y42.643 E0.02764
G1 X67.029 Y42.88 E0.03236
G1 X67.193 Y43.087 E0.02688
G1 X67.372 Y43.345 E0.03196
G1 X67.512 Y43.579 E0.02775
G1 X67.648 Y43.842 E0.03013
G1 X67.767 Y44.111 E0.02994
G1 X67.863 Y44.375 E0.02859
G1 X67.947 Y44.658 E0.03004
G1 X68.012 Y44.94 E0.02945
G1 X68.063 Y45.251 E0.03208
G1 X68.087 Y45.501 E0.02556
G1 X68.099 Y45.811 E0.03157
G1 X68.09 Y46.104 E0.02983
G1 X68.007 Y46.995 E0.09108
G1 X68.014 Y46.995 E0.00071
G1 X68.036 Y47.651 E0.0668
G1 X68.144 Y48.325 E0.06947
G1 X68.336 Y48.981 E0.06957
G1 X68.61 Y49.607 E0.06955
G1 X68.961 Y50.193 E0.06952
G1 X69.382 Y50.73 E0.06945
G1 X69.866 Y51.208 E0.06923
G1 X70.354 Y51.586 E0.06282
G1 X70.643 Y51.784 E0.03565
G1 X70.869 Y51.961 E0.02922
G1 X71.059 Y52.13 E0.02588
G1 X71.288 Y52.365 E0.0334
G1 X71.629 Y52.77 E0.05388
G1 X71.752 Y52.93 E0.02054
G1 X71.839 Y53.062 E0.01609
G1 X72.027 Y53.365 E0.03629
G1 X72.18 Y53.652 E0.0331
G1 X72.285 Y53.881 E0.02564
G1 X72.401 Y54.185 E0.03312
G1 X72.476 Y54.425 E0.02559
G1 X72.553 Y54.74 E0.033
G1 X72.603 Y55.024 E0.02935
G1 X72.634 Y55.301 E0.02837
G1 X72.649 Y55.613 E0.03179
G1 X72.644 Y55.875 E0.02667
G1 X72.621 Y56.178 E0.03093
G1 X72.58 Y56.467 E0.02971
G1 X72.523 Y56.742 E0.02858
G1 X72.441 Y57.04 E0.03146
G1 X72.364 Y57.264 E0.02411
G1 X72.224 Y57.588 E0.03592
G1 X71.951 Y58.106 E0.05959
G1 X71.807 Y58.344 E0.02831
G1 X71.741 Y58.44 E0.01186
G1 X71.498 Y58.765 E0.0413
G1 X71.311 Y58.985 E0.02939
G1 X71.117 Y59.187 E0.0285
G1 X70.894 Y59.391 E0.03076
G1 X70.669 Y59.572 E0.02939
G1 X70.451 Y59.726 E0.02716
G1 X69.545 Y60.277 E0.10792
G1 X69.012 Y60.706 E0.06964
G1 X68.539 Y61.198 E0.06946
G1 X68.131 Y61.745 E0.06945
G1 X67.795 Y62.339 E0.06946
G1 X67.537 Y62.971 E0.06948
G1 X67.361 Y63.632 E0.06962
G1 X67.27 Y64.309 E0.06952
G1 X67.265 Y64.991 E0.06941
G1 X67.345 Y65.668 E0.06938
G1 X67.511 Y66.332 E0.06966
G1 X67.758 Y66.968 E0.06944
G1 X68.085 Y67.567 E0.06946
G1 X68.487 Y68.125 E0.06999
G1 X69.114 Y68.767 E0.09133
G1 X69.431 Y69.04 E0.04258
G1 X69.647 Y69.254 E0.03095
G1 X69.848 Y69.477 E0.03055
G1 X70.021 Y69.695 E0.02832
G1 X70.186 Y69.934 E0.02956
G1 X70.335 Y70.182 E0.02945
G1 X70.458 Y70.418 E0.02709
G1 X70.595 Y70.728 E0.03449
G1 X70.684 Y70.968 E0.02605
G1 X70.771 Y71.264 E0.0314
G1 X70.833 Y71.531 E0.0279
G1 X70.879 Y71.834 E0.03119
G1 X70.919 Y72.326 E0.05024
G1 X70.929 Y72.553 E0.02313
G1 X70.925 Y74.457 E0.19378
G1 X70.899 Y74.877 E0.04283
G1 X70.872 Y75.104 E0.02327
G1 X70.811 Y75.444 E0.03516
G1 X70.686 Y76.042 E0.06218
G1 X70.649 Y76.19 E0.01553
G1 X70.544 Y76.568 E0.03993
G1 X70.455 Y76.825 E0.02768
G1 X70.335 Y77.111 E0.03157
G1 X70.211 Y77.359 E0.02822
G1 X70.072 Y77.601 E0.0284
G1 X69.897 Y77.864 E0.03215
G1 X69.737 Y78.074 E0.02687
G1 X69.535 Y78.306 E0.03131
G1 X69.314 Y78.532 E0.03217
G1 X69.132 Y78.697 E0.025
G1 X68.845 Y78.927 E0.03743
G1 X68.087 Y79.478 E0.09537
G1 X67.77 Y79.681 E0.03831
G1 X67.519 Y79.819 E0.02915
G1 X67.25 Y79.948 E0.03036
G1 X66.988 Y80.053 E0.02873
G1 X66.702 Y80.146 E0.03061
G1 X66.44 Y80.214 E0.02755
G1 X66.144 Y80.271 E0.03068
G1 X65.843 Y80.309 E0.03088
G1 X65.341 Y80.337 E0.05117
G1 X64.519 Y80.333 E0.08366
G1 X64.142 Y80.309 E0.03845
G1 X63.847 Y80.272 E0.03026
G1 X63.589 Y80.222 E0.02675
G1 X63.186 Y80.112 E0.04252
G1 X63.017 Y80.06 E0.018
G1 X62.656 Y79.942 E0.03865
G1 X62.379 Y79.832 E0.03033
G1 X62.087 Y79.693 E0.03291
G1 X61.865 Y79.574 E0.02564
G1 X61.255 Y79.296 E0.06823
G1 X60.604 Y79.093 E0.0694
G1 X59.932 Y78.973 E0.06948
G1 X59.25 Y78.938 E0.0695
G1 X58.565 Y78.991 E0.06992
G1 X57.643 Y79.206 E0.09636
G1 X57.301 Y79.303 E0.03618
G1 X57.009 Y79.366 E0.0304
G1 X56.215 Y79.486 E0.08173
G1 X56.215 Y79.495 E0.00092
G1 X56.066 Y79.525 E0.01547
G1 X55.746 Y79.567 E0.03285
G1 X55.362 Y79.593 E0.03917
G1 X55.212 Y79.598 E0.01527
G1 X54.836 Y79.594 E0.03827
G1 X54.459 Y79.57 E0.03845
G1 X54.161 Y79.533 E0.03056
G1 X53.876 Y79.478 E0.02954
G1 X53.593 Y79.404 E0.02977
G1 X53.428 Y79.35 E0.01767
G1 X52.786 Y79.182 E0.06754
G1 X52.427 Y79.126 E0.03698
G1 X52.236 Y79.102 E0.01959
G1 X51.936 Y79.045 E0.03108
G1 X51.648 Y78.969 E0.03031
G1 X51.388 Y78.884 E0.02784
G1 X51.111 Y78.774 E0.03033
G1 X50.852 Y78.651 E0.02918
G1 X50.595 Y78.509 E0.02988
G1 X50.356 Y78.357 E0.02883
G1 X50.109 Y78.175 E0.03123
G1 X49.908 Y78.006 E0.02673
G1 X49.675 Y77.786 E0.03261
G1 X49.488 Y77.584 E0.02802
G1 X49.3 Y77.354 E0.03023
G1 X49.136 Y77.126 E0.02858
G1 X48.974 Y76.867 E0.03109
G1 X48.846 Y76.628 E0.02759
G1 X48.719 Y76.353 E0.03083
G1 X48.617 Y76.092 E0.02852
G1 X48.522 Y75.789 E0.03232
G1 X48.46 Y75.541 E0.02602
G1 X48.404 Y75.228 E0.03236
G1 X48.37 Y74.939 E0.02962
G1 X48.357 Y74.682 E0.02619
G1 X48.36 Y74.37 E0.03176
G1 X48.383 Y74.066 E0.03103
G1 X48.421 Y73.792 E0.02815
G1 X48.477 Y73.516 E0.02866
G1 X48.56 Y73.208 E0.03247
G1 X48.636 Y72.979 E0.02456
G1 X48.933 Y72.235 E0.08153
G1 X48.91 Y72.227 E0.00248
G1 X48.979 Y72.023 E0.02192
G1 X49.12 Y71.309 E0.07407
G1 X49.159 Y70.999 E0.0318
G1 X49.216 Y70.702 E0.03078
G1 X49.292 Y70.414 E0.03031
G1 X49.376 Y70.156 E0.02761
G1 X49.487 Y69.877 E0.03056
G1 X49.609 Y69.619 E0.02905
G1 X49.755 Y69.356 E0.03061
G1 X49.904 Y69.122 E0.02823
G1 X50.077 Y68.887 E0.0297
G1 X50.27 Y68.656 E0.03064
G1 X50.464 Y68.451 E0.02873
G1 X50.894 Y67.936 E0.06828
G1 X51.261 Y67.36 E0.06951
G1 X51.552 Y66.743 E0.06943
G1 X51.764 Y66.094 E0.06949
G1 X51.892 Y65.423 E0.06952
G1 X51.934 Y64.741 E0.06954
G1 X51.89 Y64.06 E0.06945
G1 X51.76 Y63.39 E0.06946
G1 X51.547 Y62.741 E0.06952
G1 X51.253 Y62.124 E0.06956
G1 X50.884 Y61.55 E0.06945
G1 X50.443 Y61.022 E0.07002
G1 X50.11 Y60.732 E0.04494
G1 X50.12 Y60.718 E0.00175
G1 X49.469 Y60.188 E0.08544
G1 X49.278 Y60.01 E0.02657
G1 X49.042 Y59.754 E0.03544
G1 X48.678 Y59.294 E0.0597
G1 X48.556 Y59.124 E0.0213
G1 X48.233 Y58.621 E0.06084
G1 X48.037 Y58.273 E0.04065
G1 X47.919 Y58.029 E0.02758
G1 X47.803 Y57.745 E0.03122
G1 X47.718 Y57.49 E0.02736
G1 X47.637 Y57.187 E0.03192
G1 X47.58 Y56.901 E0.02968
G1 X47.544 Y56.632 E0.02762
G1 X47.523 Y56.332 E0.03061
G1 X47.52 Y56.025 E0.03125
G1 X47.535 Y55.766 E0.0264
G1 X47.569 Y55.482 E0.02911
G1 X47.59 Y55.367 E0.0119
G1 X47.597 Y55.368 E0.00072
G1 X47.708 Y54.519 E0.08714
G1 X47.767 Y54.217 E0.03132
G1 X47.831 Y53.969 E0.02607
G1 X47.934 Y53.659 E0.03325
G1 X48.039 Y53.4 E0.02844
G1 X48.164 Y53.14 E0.02936
G1 X48.303 Y52.889 E0.0292
G1 X48.463 Y52.641 E0.03004
G1 X48.624 Y52.422 E0.02766
G1 X48.818 Y52.191 E0.0307
G1 X49.027 Y51.972 E0.03081
G1 X49.108 Y51.898 E0.01117
G1 X49.572 Y51.416 E0.06809
G1 X49.979 Y50.868 E0.06947
G1 X50.314 Y50.273 E0.0695
G1 X50.571 Y49.64 E0.06953
G1 X50.746 Y48.984 E0.0691
G1 X50.781 Y48.756 E0.02348
G1 X50.858 Y48.298 E0.04727
G1 X50.921 Y48.02 E0.02901
G1 X51.021 Y47.681 E0.03597
G1 X51.724 Y45.621 E0.22153
G1 X51.866 Y45.275 E0.03806
G1 X52.002 Y44.996 E0.03159
G1 X52.145 Y44.746 E0.02931
G1 X52.286 Y44.526 E0.02659
G1 X52.5 Y44.235 E0.03676
G1 X52.889 Y43.748 E0.06344
G0 F1012.5 X53.051 Y43.545
G0 F7200 X52.8 Y43.859
G1 F1125 X52.8 Y79.185 E3.59534
G0 F7200 X51.2 Y78.809
G1 F1125 X51.2 Y67.455 E1.15556
G0 F7200 X49.6 Y69.638
G1 F1125 X49.6 Y77.704 E0.82093
G0 F7200 X54.4 Y79.562
G1 F1125 X54.4 Y42.344 E3.7879
G0 F7200 X56 Y41.412
G1 F1125 X56 Y79.534 E3.87991
G0 F7200 X57.6 Y79.219
G1 F1125 X57.6 Y40.965 E3.89334
G0 F7200 X59.2 Y40.313
G1 F1125 X59.2 Y78.942 E3.93151
G0 F7200 X60.8 Y79.154
G1 F1125 X60.8 Y40.163 E3.96835
G0 F7200 X62.4 Y40.49
G1 F1125 X62.4 Y79.84 E4.00489
G0 F7200 X64 Y80.291
G1 F1125 X64 Y40.952 E4.00377
G0 F7200 X65.6 Y41.735
G1 F1125 X65.6 Y80.323 E3.92733
G0 F7200 X67.2 Y79.969
G1 F1125 X67.2 Y43.098 E3.75258
G0 F7200 X68.8 Y49.925
G1 F1125 X68.8 Y60.927 E1.11974
G0 F7200 X70.4 Y59.758
G1 F1125 X70.4 Y51.618 E0.82846
G0 F7200 X72 Y53.322
G1 F1125 X72 Y58.014 E0.47753
G0 F7200 X68.8 Y68.446
G1 F1125 X68.8 Y78.96 E1.07007
G0 F7200 X70.4 Y76.957
G1 F1125 X70.4 Y70.307 E0.67681
G0 F7200 X51.2 Y62.041
M104 S200
G1 F1125 X51.2 Y47.156 E1.51494
G0 F7200 X49.6 Y51.378
G1 F1125 X49.6 Y60.294 E0.90743
G0 F7200 X48 Y58.196
G1 F1125 X48 Y53.496 E0.47835
G0 F600 X48 Y53.496 Z0.525
G0 F7200 X66.319 Y42.136
;TIME_ELAPSED:60.619257
;LAYER:-11
M140 S60
;TYPE:SUPPORT
G1 F1125 X66.192 Y42.039 E0.01019
G1 X65.942 Y41.872 E0.01916
G1 X65.629 Y41.692 E0.02301
G1 X65.503 Y41.624 E0.00913
G1 X64.244 Y41.002 E0.0895
G1 X63.747 Y40.79 E0.03444
G1 X63.676 Y40.766 E0.00478
G1 X68.104 Y45.194 E0.39912
G1 X68.109 Y45.23 E0.00232
G1 X68.136 Y45.498 E0.01717
G1 X68.148 Y45.807 E0.01971
G1 X68.138 Y46.111 E0.01939
G1 X68.105 Y46.468 E0.02285
G1 X61.963 Y40.325 E0.55365
G1 X61.723 Y40.262 E0.01581
G1 X61.511 Y40.218 E0.0138
G1 X60.996 Y40.131 E0.03329
G1 X60.621 Y40.097 E0.024
G1 X60.458 Y40.093 E0.01039
G1 X68.099 Y47.734 E0.68872
G1 X68.191 Y48.313 E0.03737
G1 X68.382 Y48.963 E0.04318
G1 X68.636 Y49.544 E0.04041
G1 X59.322 Y40.23 E0.83951
G1 X59.208 Y40.257 E0.00747
G1 X58.931 Y40.343 E0.01849
G1 X58.672 Y40.44 E0.01763
G1 X58.387 Y40.568 E0.01991
G1 X72.612 Y54.792 E1.28212
G1 X72.65 Y55.006 E0.01385
G1 X72.683 Y55.298 E0.01873
G1 X72.698 Y55.61 E0.01991
G1 X72.693 Y55.879 E0.01715
G1 X72.674 Y56.128 E0.01592
G1 X57.491 Y40.945 E1.36851
G1 X56.974 Y41.088 E0.03419
G1 X56.592 Y41.167 E0.02486
G1 X56.475 Y41.201 E0.00777
G1 X72.447 Y57.173 E1.43963
G1 X72.407 Y57.289 E0.00782
G1 X72.271 Y57.603 E0.02181
G1 X72.04 Y58.04 E0.0315
G1 X55.559 Y41.558 E1.48555
G1 X55.49 Y41.592 E0.0049
G1 X55.173 Y41.776 E0.02336
G1 X55.039 Y41.857 E0.00998
G1 X54.767 Y42.039 E0.02086
G1 X71.53 Y58.802 E1.51093
G1 X71.351 Y59.013 E0.01764
G1 X71.15 Y59.224 E0.01857
G1 X70.932 Y59.421 E0.01873
G1 X70.9 Y59.445 E0.00255
G1 X54.015 Y42.56 E1.52192
G1 X53.61 Y42.886 E0.03314
G1 X53.344 Y43.137 E0.02331
G1 X53.332 Y43.149 E0.00108
G1 X70.148 Y59.966 E1.51575
G1 X70.14 Y59.971 E0.0006
G1 X69.572 Y60.318 E0.04242
G1 X69.381 Y60.471 E0.0156
G1 X52.75 Y43.84 E1.49903
G1 X52.454 Y44.211 E0.03025
G1 X52.249 Y44.489 E0.02201
G1 X52.2 Y44.563 E0.00566
G1 X68.719 Y61.082 E1.48893
G1 X68.577 Y61.23 E0.01307
G1 X68.172 Y61.772 E0.04312
G1 X68.159 Y61.795 E0.00168
G1 X51.761 Y45.397 E1.47803
G1 X51.672 Y45.614 E0.01495
G1 X51.426 Y46.335 E0.04855
G1 X67.728 Y62.636 E1.46933
G1 X67.584 Y62.986 E0.02412
G1 X67.42 Y63.602 E0.04063
G1 X51.102 Y47.284 E1.47082
G1 X50.972 Y47.666 E0.02572
G1 X50.866 Y48.029 E0.0241
G1 X50.811 Y48.266 E0.01551
G1 X67.315 Y64.77 E1.48758
G1 X67.314 Y64.988 E0.01389
G1 X67.392 Y65.659 E0.04305
G1 X67.547 Y66.274 E0.04042
G1 X50.601 Y49.329 E1.52737
G1 X50.523 Y49.624 E0.01945
G1 X50.268 Y50.251 E0.04314
G1 X50.261 Y50.261 E0.00078
G1 X70.589 Y70.589 E1.83225
G1 X70.633 Y70.687 E0.00685
G1 X70.731 Y70.951 E0.01795
G1 X70.822 Y71.259 E0.02047
G1 X70.878 Y71.506 E0.01614
G1 X70.929 Y71.84 E0.02153
G1 X70.961 Y72.234 E0.02519
G1 X49.778 Y51.051 E1.90932
G1 X49.533 Y51.383 E0.0263
G1 X49.192 Y51.737 E0.03133
G1 X70.977 Y73.522 E1.96358
G1 X70.975 Y74.458 E0.05966
G1 X70.955 Y74.773 E0.02012
G1 X48.578 Y52.397 E2.0169
G1 X48.414 Y52.622 E0.01775
G1 X48.257 Y52.865 E0.01844
G1 X48.122 Y53.109 E0.01777
G1 X48.088 Y53.18 E0.00502
G1 X70.771 Y75.862 E2.04448
G1 X70.695 Y76.213 E0.02289
G1 X70.597 Y76.564 E0.02323
G1 X70.497 Y76.855 E0.01961
G1 X70.495 Y76.859 E0.00029
G1 X47.743 Y54.107 E2.05074
G1 X47.717 Y54.206 E0.00652
G1 X47.657 Y54.519 E0.02031
G1 X47.567 Y55.204 E0.04403
G1 X70.065 Y77.702 E2.02785
G1 X69.942 Y77.887 E0.01416
G1 X69.775 Y78.106 E0.01755
G1 X69.575 Y78.336 E0.01943
G1 X69.501 Y78.411 E0.00672
G1 X47.475 Y56.385 E1.9853
G1 X47.492 Y56.618 E0.01489
G1 X47.531 Y56.916 E0.01915
G1 X47.59 Y57.211 E0.01917
G1 X47.663 Y57.482 E0.01789
G1 X47.756 Y57.759 E0.01862
G1 X47.872 Y58.046 E0.01973
G1 X47.88 Y58.062 E0.00114
G1 X68.821 Y79.004 E1.88755
G1 X68.124 Y79.512 E0.05497
G1 X68.083 Y79.538 E0.00309
G1 X51.595 Y63.05 E1.48614
G1 X51.71 Y63.402 E0.0236
G1 X51.839 Y64.065 E0.04305
G1 X51.874 Y64.602 E0.0343
G1 X67.265 Y79.993 E1.38726
G1 X67.005 Y80.098 E0.01787
G1 X66.714 Y80.193 E0.01951
G1 X66.45 Y80.261 E0.01738
G1 X66.291 Y80.291 E0.01031
G1 X51.773 Y65.774 E1.30853
G1 X51.716 Y66.08 E0.01984
G1 X51.505 Y66.724 E0.04319
G1 X51.487 Y66.76 E0.00257
G1 X65.111 Y80.384 E1.22799
G1 X64.517 Y80.381 E0.03786
G1 X64.133 Y80.357 E0.02452
G1 X63.846 Y80.322 E0.01843
G1 X63.759 Y80.305 E0.00565
G1 X51.049 Y67.595 E1.14561
G1 X50.852 Y67.905 E0.02341
G1 X50.504 Y68.323 E0.03467
G1 X61.761 Y79.58 E1.01464
G1 X61.236 Y79.341 E0.03676
G1 X60.591 Y79.14 E0.04306
G1 X59.93 Y79.022 E0.04279
G1 X49.921 Y69.013 E0.90216
G1 X49.864 Y69.092 E0.00621
G1 X49.711 Y69.331 E0.01809
G1 X49.568 Y69.588 E0.01874
G1 X49.457 Y69.821 E0.01645
G1 X58.667 Y79.032 E0.83018
G1 X58.572 Y79.04 E0.00608
G1 X57.666 Y79.25 E0.05927
G1 X57.624 Y79.261 E0.00277
G1 X49.148 Y70.786 E0.76394
G1 X49.108 Y70.999 E0.01381
G1 X49.071 Y71.299 E0.01927
G1 X48.958 Y71.868 E0.03697
G1 X56.571 Y79.481 E0.68619
G1 X56.264 Y79.528 E0.01979
G1 X56.265 Y79.536 E0.00051
G1 X56.067 Y79.574 E0.01285
G1 X55.756 Y79.616 E0.02
G1 X55.45 Y79.633 E0.01953
G1 X48.642 Y72.825 E0.61364
G1 X48.585 Y72.97 E0.00993
G1 X48.518 Y73.172 E0.01356
G1 X48.426 Y73.507 E0.02214
G1 X48.373 Y73.771 E0.01716
G1 X48.366 Y73.822 E0.00328
G1 X54.118 Y79.574 E0.51845
G1 X53.866 Y79.526 E0.01635
G1 X53.566 Y79.448 E0.01976
G1 X53.414 Y79.397 E0.01022
G1 X52.776 Y79.23 E0.04203
G1 X52.449 Y79.178 E0.0211
G1 X48.334 Y75.062 E0.37095
G1 X48.357 Y75.257 E0.01251
G1 X48.407 Y75.53 E0.01769
G1 X48.478 Y75.815 E0.01872
G1 X48.569 Y76.108 E0.01955
G1 X48.667 Y76.359 E0.01717
G1 X48.805 Y76.656 E0.02087
G1 X48.93 Y76.887 E0.01674
G1 X49.001 Y77.003 E0.00867
G1 X50.513 Y78.515 E0.13628
G1 X50.326 Y78.396 E0.01413
G1 X50.082 Y78.216 E0.01932
G1 X49.858 Y78.027 E0.01868
G1 X49.657 Y77.838 E0.01758
G1 X49.447 Y77.612 E0.01966
G1 X49.256 Y77.377 E0.0193
G1 X49.097 Y77.156 E0.01735
G0 F7200 X67.202 Y43.018
G1 F1125 X66.319 Y42.136 E0.07954
G1 X66.427 Y42.219 E0.00868
G1 X66.654 Y42.415 E0.01911
G1 X66.862 Y42.62 E0.01861
G1 X67.065 Y42.845 E0.01931
G0 F7200 X68.124 Y79.512
G0 F600 X68.124 Y79.512 Z0.569
G0 F7200 X64.118 Y80.532
;TIME_ELAPSED:109.244826
;LAYER:-10
;TYPE:SUPPORT-INTERFACE
G1 F1500 X64.637 Y80.562 E0.00333
G1 X65.47 Y80.558 E0.00533
G1 X66.099 Y80.5 E0.00404
