;FLAVOR:RepRap
;TIME:2617
;Filament used: 0.444015m
;Layer height: 0.04375
;MINX:47.066
;MINY:40.465
;MINZ:0.263
;MAXX:73.065
;MAXY:80.77
;MAXZ:13.463
;Generated with Cura_SteamEngine 4.3.0
T0
M190 S65
M104 S205
M109 S205
M82 ;absolute extrusion mode
G21        ;metric values
G90        ;absolute positioning
M82        ;set extruder to absolute mode
M107       ;start with the fan off
G28 X0 Y0  ;move X/Y to min endstops
G28 Z0     ;move Z to min endstops
G1 Z15.0 F6000 ;move the platform down 15mm
G92 E0                  ;zero the extruded length
G1 F200 E3              ;extrude 3mm of feed stock
G92 E0                  ;zero the extruded length again
G1 F6000
M117 Printing...
M83 ;relative extrusion mode
G1 F2400 E-2.5
;LAYER_COUNT:304
;LAYER:0
M107
G0 F4320 X54.858 Y42.352 Z0.263
;TYPE:SKIRT
G1 F2400 E2.5
G1 F1800 X55.287 Y41.882 E0.02435
G1 X55.773 Y41.469 E0.02441
G1 X56.306 Y41.121 E0.02436
G1 X56.878 Y40.842 E0.02436
G1 X57.481 Y40.637 E0.02437
G1 X58.105 Y40.509 E0.02438
G1 X59.043 Y40.465 E0.03594
G1 X60.806 Y40.546 E0.06754
G1 X61.337 Y40.599 E0.02042
G1 X62.886 Y40.835 E0.05996
G1 X63.509 Y40.97 E0.0244
G1 X64.109 Y41.182 E0.02435
G1 X64.678 Y41.468 E0.02437
G1 X65.207 Y41.823 E0.02438
G1 X65.688 Y42.241 E0.02439
G1 X66.112 Y42.716 E0.02437
G1 X66.473 Y43.24 E0.02435
G1 X66.766 Y43.806 E0.02439
G1 X66.986 Y44.404 E0.02439
G1 X67.129 Y45.024 E0.02435
G1 X67.193 Y45.658 E0.02439
G1 X67.171 Y46.312 E0.02504
G1 X67.222 Y46.416 E0.00443
G1 X67.428 Y47.019 E0.02439
G1 X67.556 Y47.643 E0.02438
G1 X67.577 Y48.004 E0.01384
G1 X67.646 Y48.44 E0.01689
G1 X67.747 Y49.508 E0.04105
G1 X68.12 Y49.687 E0.01583
G1 X69.508 Y50.496 E0.06148
G1 X70.037 Y50.851 E0.02438
G1 X70.444 Y51.199 E0.02049
G1 X70.64 Y51.385 E0.01034
G1 X70.668 Y51.408 E0.00139
G1 X71.132 Y51.843 E0.02434
G1 X71.375 Y52.121 E0.01413
G1 X71.535 Y52.318 E0.00971
G1 X71.779 Y52.644 E0.01558
G1 X71.948 Y52.89 E0.01142
G1 X72.289 Y53.465 E0.02558
G1 X72.382 Y53.648 E0.00786
G1 X72.635 Y54.233 E0.02439
G1 X72.812 Y54.844 E0.02434
G1 X72.889 Y55.28 E0.01694
G1 X72.9 Y55.363 E0.0032
G1 X72.914 Y55.57 E0.00794
G1 X72.96 Y55.763 E0.00759
G1 X73.012 Y56.116 E0.01366
G1 X73.065 Y56.751 E0.02439
G1 X73.038 Y57.387 E0.02436
G1 X72.932 Y58.015 E0.02437
G1 X72.748 Y58.625 E0.02438
G1 X72.489 Y59.207 E0.02438
G1 X72.159 Y59.752 E0.02438
G1 X71.763 Y60.251 E0.02438
G1 X71.309 Y60.697 E0.02436
G1 X70.933 Y60.991 E0.01827
G1 X70.68 Y61.171 E0.01188
G1 X70.646 Y61.192 E0.00153
G1 X70.606 Y61.223 E0.00194
G1 X70.486 Y61.309 E0.00565
G1 X69.946 Y61.647 E0.02438
G1 X69.368 Y61.914 E0.02437
G1 X68.761 Y62.107 E0.02438
G1 X68.135 Y62.223 E0.02436
G1 X67.851 Y62.24 E0.01089
G1 X67.408 Y62.296 E0.01709
G1 X66.771 Y62.296 E0.02438
G1 X66.14 Y62.217 E0.02434
G1 X65.595 Y62.077 E0.02153
G1 X65.432 Y62.53 E0.01842
G1 X65.203 Y63.06 E0.0221
G1 X65.616 Y63.498 E0.02304
G1 X65.992 Y64.013 E0.0244
G1 X66.3 Y64.57 E0.02436
G1 X66.536 Y65.161 E0.02435
G1 X66.696 Y65.778 E0.02439
G1 X66.778 Y66.409 E0.02435
G1 X66.773 Y67.15 E0.02836
G1 X66.76 Y67.306 E0.00599
G1 X67.132 Y67.427 E0.01497
G1 X67.287 Y67.5 E0.00656
G1 X67.494 Y67.537 E0.00805
G1 X68.102 Y67.726 E0.02437
G1 X68.681 Y67.99 E0.02435
G1 X69.223 Y68.325 E0.02438
G1 X69.719 Y68.725 E0.02439
G1 X70.161 Y69.184 E0.02439
G1 X70.541 Y69.694 E0.02434
G1 X70.855 Y70.248 E0.02437
G1 X71.097 Y70.837 E0.02437
G1 X71.263 Y71.452 E0.02438
G1 X71.326 Y71.834 E0.01482
G1 X71.438 Y72.727 E0.03444
G1 X71.439 Y72.727 E0.00004
G1 X71.615 Y74.048 E0.051
G1 X71.659 Y74.683 E0.02436
G1 X71.623 Y75.319 E0.02438
G1 X71.508 Y75.945 E0.02436
G1 X71.316 Y76.552 E0.02436
G1 X71.049 Y77.131 E0.0244
G1 X70.712 Y77.671 E0.02436
G1 X70.309 Y78.165 E0.0244
G1 X69.982 Y78.477 E0.0173
G1 X69.704 Y78.872 E0.01849
G1 X69.275 Y79.342 E0.02435
G1 X68.79 Y79.756 E0.0244
G1 X68.258 Y80.105 E0.02435
G1 X67.686 Y80.385 E0.02437
G1 X67.083 Y80.591 E0.02439
G1 X66.46 Y80.72 E0.02435
G1 X65.825 Y80.77 E0.02438
G1 X65.011 Y80.718 E0.03122
G1 X62.465 Y80.346 E0.09847
G1 X61.842 Y80.214 E0.02437
G1 X61.24 Y80.006 E0.02437
G1 X60.669 Y79.724 E0.02437
G1 X60.138 Y79.372 E0.02438
G1 X59.912 Y79.178 E0.0114
G1 X59.819 Y79.266 E0.0049
G1 X59.304 Y79.641 E0.02438
G1 X58.747 Y79.948 E0.02434
G1 X58.155 Y80.183 E0.02438
G1 X57.538 Y80.342 E0.02438
G1 X56.906 Y80.423 E0.02438
G1 X56.519 Y80.433 E0.01482
G1 X56.196 Y80.429 E0.01236
G1 X55.659 Y80.393 E0.0206
G1 X54.316 Y80.233 E0.05176
G1 X53.248 Y80.134 E0.04105
G1 X52.618 Y80.036 E0.0244
G1 X52.007 Y79.859 E0.02434
G1 X51.422 Y79.608 E0.02436
G1 X50.873 Y79.285 E0.02438
G1 X50.369 Y78.895 E0.02439
G1 X49.917 Y78.446 E0.02438
G1 X49.526 Y77.944 E0.02435
G1 X49.2 Y77.397 E0.02437
G1 X48.946 Y76.813 E0.02437
G1 X48.766 Y76.202 E0.02438
G1 X48.655 Y75.454 E0.02894
G1 X48.498 Y73.325 E0.0817
G1 X48.491 Y72.688 E0.02438
G1 X48.564 Y72.056 E0.02435
G1 X48.715 Y71.437 E0.02438
G1 X48.943 Y70.842 E0.02439
G1 X49.244 Y70.281 E0.02436
G1 X49.612 Y69.762 E0.02435
G1 X50.043 Y69.292 E0.0244
G1 X50.413 Y68.97 E0.01877
G1 X51.604 Y68.029 E0.05809
G1 X52.127 Y67.666 E0.02436
G1 X52.692 Y67.372 E0.02437
G1 X53.207 Y67.181 E0.02102
G1 X53.191 Y66.544 E0.02439
G1 X53.254 Y65.91 E0.02438
G1 X53.397 Y65.29 E0.02435
G1 X53.616 Y64.692 E0.02437
G1 X53.908 Y64.126 E0.02437
G1 X54.269 Y63.601 E0.02438
G1 X54.692 Y63.125 E0.02437
G1 X54.786 Y63.043 E0.00477
G1 X54.632 Y62.688 E0.01481
G1 X54.446 Y62.208 E0.0197
G1 X54.385 Y62.016 E0.00771
G1 X54.237 Y62.056 E0.00587
G1 X54.012 Y62.112 E0.00887
G1 X53.79 Y62.162 E0.00871
G1 X53.161 Y62.263 E0.02438
G1 X52.525 Y62.284 E0.02435
G1 X51.606 Y62.172 E0.03543
G1 X51.346 Y62.116 E0.01018
G1 X50.733 Y61.943 E0.02438
G1 X50.147 Y61.695 E0.02435
G1 X49.596 Y61.375 E0.02438
G1 X49.094 Y60.993 E0.02414
G1 X49.042 Y60.948 E0.00263
G1 X48.588 Y60.501 E0.02438
G1 X48.193 Y60.002 E0.02436
G1 X47.863 Y59.457 E0.02438
G1 X47.605 Y58.875 E0.02436
G1 X47.421 Y58.265 E0.02438
G1 X47.315 Y57.637 E0.02437
G1 X47.311 Y57.55 E0.00333
G1 X47.266 Y57.425 E0.00508
G1 X47.127 Y56.804 E0.02435
G1 X47.066 Y56.17 E0.02438
G1 X47.085 Y55.534 E0.02435
G1 X47.183 Y54.904 E0.0244
G1 X47.291 Y54.499 E0.01604
G1 X47.345 Y54.325 E0.00697
G1 X47.572 Y53.73 E0.02437
G1 X47.915 Y53.097 E0.02755
G1 X48.067 Y52.859 E0.01081
G1 X48.323 Y52.495 E0.01703
G1 X48.527 Y52.23 E0.0128
G1 X48.946 Y51.751 E0.02435
G1 X49.388 Y51.355 E0.02271
G1 X49.523 Y51.247 E0.00662
G1 X49.656 Y51.131 E0.00675
G1 X50.189 Y50.723 E0.02569
G1 X50.713 Y50.374 E0.02409
G1 X50.92 Y50.243 E0.00937
G1 X51.59 Y49.842 E0.02988
G1 X52.094 Y49.578 E0.02177
G1 X52.121 Y49.566 E0.00113
G1 X52.159 Y49.081 E0.01862
G1 X52.288 Y48.457 E0.02439
G1 X52.394 Y48.153 E0.01232
G1 X52.441 Y47.746 E0.01568
G1 X52.593 Y47.127 E0.02439
G1 X52.821 Y46.533 E0.02435
G1 X53.121 Y45.971 E0.02438
G1 X53.276 Y45.743 E0.01055
G1 X53.29 Y45.717 E0.00113
G1 X53.692 Y45.097 E0.02828
G1 X53.774 Y44.989 E0.00519
G1 X53.813 Y44.648 E0.01314
G1 X53.964 Y44.029 E0.02438
G1 X54.19 Y43.434 E0.02436
G1 X54.464 Y42.922 E0.02222
G0 F1620 X54.49 Y42.872
G0 X54.858 Y42.352
G0 F4320 X55.199 Y42.488
G1 F1800 X55.625 Y42.045 E0.02352
G1 X56.105 Y41.661 E0.02352
G1 X56.63 Y41.343 E0.02349
G1 X57.193 Y41.095 E0.02354
G1 X57.783 Y40.923 E0.02352
G1 X58.39 Y40.829 E0.02351
G1 X59.027 Y40.815 E0.02438
G1 X60.79 Y40.896 E0.06754
G1 X61.285 Y40.945 E0.01904
G1 X62.834 Y41.181 E0.05996
G1 X63.434 Y41.313 E0.02351
G1 X64.012 Y41.521 E0.02351
G1 X64.558 Y41.803 E0.02352
G1 X65.063 Y42.154 E0.02354
G1 X65.518 Y42.567 E0.02352
G1 X65.915 Y43.035 E0.02349
G1 X66.249 Y43.551 E0.02352
G1 X66.513 Y44.106 E0.02352
G1 X66.702 Y44.691 E0.02353
G1 X66.814 Y45.295 E0.02351
G1 X66.847 Y45.909 E0.02353
G1 X66.821 Y46.346 E0.01675
G1 X66.817 Y46.386 E0.00154
G1 X66.915 Y46.59 E0.00866
G1 X67.107 Y47.174 E0.02353
G1 X67.221 Y47.777 E0.02349
G1 X67.234 Y48.059 E0.0108
G1 X67.298 Y48.473 E0.01603
G1 X67.417 Y49.736 E0.04855
G1 X67.647 Y49.831 E0.00952
G1 X67.943 Y49.99 E0.01286
G1 X69.331 Y50.799 E0.06148
G1 X69.841 Y51.142 E0.02352
G1 X70.203 Y51.453 E0.01826
G1 X70.408 Y51.648 E0.01083
G1 X70.445 Y51.678 E0.00182
G1 X70.892 Y52.099 E0.0235
G1 X71.104 Y52.342 E0.01234
G1 X71.264 Y52.539 E0.00971
G1 X71.491 Y52.842 E0.01449
G1 X71.66 Y53.088 E0.01142
G1 X71.977 Y53.623 E0.0238
G1 X72.07 Y53.806 E0.00786
G1 X72.312 Y54.371 E0.02352
G1 X72.479 Y54.963 E0.02354
G1 X72.542 Y55.326 E0.0141
G1 X72.553 Y55.409 E0.0032
G1 X72.561 Y55.533 E0.00476
G1 X72.614 Y55.814 E0.01094
G1 X72.666 Y56.167 E0.01366
G1 X72.715 Y56.78 E0.02353
G1 X72.685 Y57.394 E0.02353
G1 X72.576 Y57.998 E0.02349
G1 X72.389 Y58.584 E0.02354
G1 X72.127 Y59.14 E0.02352
G1 X71.796 Y59.657 E0.02349
G1 X71.4 Y60.127 E0.02352
G1 X70.73 Y60.706 E0.03389
G1 X70.477 Y60.886 E0.01188
G1 X70.439 Y60.909 E0.0017
G1 X70.402 Y60.939 E0.00182
G1 X70.282 Y61.025 E0.00565
G1 X69.761 Y61.349 E0.02348
G1 X69.201 Y61.604 E0.02355
G1 X68.614 Y61.783 E0.02349
G1 X68.008 Y61.885 E0.02352
G1 X67.799 Y61.896 E0.00801
G1 X67.3 Y61.951 E0.01921
G1 X66.686 Y61.939 E0.0235
G1 X66.078 Y61.847 E0.02353
G1 X65.487 Y61.677 E0.02353
G1 X65.368 Y61.625 E0.00497
G1 X65.276 Y61.928 E0.01212
G1 X65.102 Y62.411 E0.01965
G1 X64.857 Y62.975 E0.02353
G1 X64.762 Y63.144 E0.00742
G1 X65.064 Y63.411 E0.01543
G1 X65.468 Y63.874 E0.02352
G1 X65.809 Y64.386 E0.02354
G1 X66.08 Y64.937 E0.0235
G1 X66.278 Y65.519 E0.02353
G1 X66.398 Y66.121 E0.02349
G1 X66.439 Y66.735 E0.02355
G1 X66.424 Y67.122 E0.01482
G1 X66.389 Y67.562 E0.01689
G1 X66.481 Y67.58 E0.00359
G1 X67.063 Y67.777 E0.02351
G1 X67.188 Y67.838 E0.00532
G1 X67.432 Y67.882 E0.00949
G1 X68.017 Y68.069 E0.0235
G1 X68.573 Y68.33 E0.02351
G1 X69.091 Y68.661 E0.02353
G1 X69.561 Y69.057 E0.02352
G1 X69.976 Y69.51 E0.02351
G1 X70.329 Y70.013 E0.02352
G1 X70.613 Y70.558 E0.02352
G1 X70.824 Y71.135 E0.02351
G1 X70.979 Y71.877 E0.02901
G1 X71.092 Y72.773 E0.03456
G1 X71.268 Y74.094 E0.051
G1 X71.309 Y74.707 E0.02351
G1 X71.27 Y75.32 E0.02351
G1 X71.153 Y75.923 E0.02351
G1 X70.958 Y76.506 E0.02353
G1 X70.689 Y77.059 E0.02353
G1 X70.35 Y77.572 E0.02353
G1 X69.948 Y78.036 E0.02349
G1 X69.728 Y78.232 E0.01128
G1 X69.403 Y78.686 E0.02137
G1 X68.984 Y79.136 E0.02353
G1 X68.511 Y79.527 E0.02349
G1 X67.99 Y79.854 E0.02354
G1 X67.432 Y80.11 E0.02349
G1 X66.845 Y80.291 E0.02351
G1 X66.239 Y80.395 E0.02353
G1 X65.625 Y80.419 E0.02352
G1 X65.062 Y80.371 E0.02162
G1 X62.516 Y79.999 E0.09847
G1 X61.915 Y79.871 E0.02352
G1 X61.336 Y79.666 E0.02351
G1 X60.788 Y79.388 E0.02352
G1 X60.281 Y79.04 E0.02353
G1 X59.911 Y78.708 E0.01902
G1 X59.478 Y79.091 E0.02212
G1 X58.969 Y79.436 E0.02353
G1 X58.42 Y79.711 E0.0235
G1 X57.839 Y79.913 E0.02354
G1 X57.238 Y80.037 E0.02348
G1 X56.523 Y80.083 E0.02742
G1 X56.2 Y80.079 E0.01236
G1 X55.7 Y80.046 E0.01918
G1 X54.35 Y79.885 E0.05203
G1 X53.28 Y79.786 E0.04112
G1 X52.673 Y79.689 E0.02352
G1 X52.084 Y79.515 E0.0235
G1 X51.522 Y79.266 E0.02352
G1 X50.998 Y78.946 E0.0235
G1 X50.519 Y78.56 E0.02354
G1 X50.095 Y78.116 E0.0235
G1 X49.731 Y77.62 E0.02354
G1 X49.436 Y77.082 E0.02348
G1 X49.212 Y76.509 E0.02354
G1 X49.065 Y75.913 E0.02349
G1 X49.004 Y75.428 E0.01871
G1 X48.847 Y73.299 E0.0817
G1 X48.842 Y72.685 E0.0235
G1 X48.916 Y72.075 E0.02352
G1 X49.069 Y71.48 E0.02351
G1 X49.298 Y70.91 E0.02351
G1 X49.599 Y70.374 E0.02353
G1 X49.967 Y69.882 E0.02351
G1 X50.63 Y69.245 E0.03519
G1 X51.821 Y68.304 E0.05809
G1 X52.327 Y67.955 E0.02352
G1 X52.874 Y67.675 E0.02352
G1 X53.452 Y67.468 E0.0235
G1 X53.599 Y67.436 E0.00576
G1 X53.549 Y67.064 E0.01436
G1 X53.546 Y66.449 E0.02354
G1 X53.622 Y65.84 E0.02349
G1 X53.777 Y65.245 E0.02353
G1 X54.008 Y64.676 E0.0235
G1 X54.311 Y64.141 E0.02353
G1 X54.681 Y63.65 E0.02353
G1 X55.112 Y63.212 E0.02352
G1 X55.229 Y63.12 E0.0057
G1 X55.101 Y62.893 E0.00997
G1 X54.958 Y62.561 E0.01383
G1 X54.772 Y62.081 E0.0197
G1 X54.611 Y61.568 E0.02058
G1 X54.386 Y61.652 E0.00919
G1 X54.145 Y61.718 E0.00956
G1 X53.935 Y61.771 E0.00829
G1 X53.713 Y61.821 E0.00871
G1 X53.106 Y61.916 E0.02351
G1 X52.492 Y61.932 E0.02351
G1 X51.68 Y61.83 E0.03132
G1 X51.42 Y61.774 E0.01018
G1 X50.829 Y61.606 E0.02351
G1 X50.265 Y61.362 E0.02352
G1 X49.737 Y61.048 E0.02351
G1 X49.323 Y60.728 E0.02002
G1 X49.271 Y60.683 E0.00263
G1 X48.834 Y60.251 E0.02352
G1 X48.456 Y59.767 E0.0235
G1 X48.144 Y59.237 E0.02354
G1 X47.904 Y58.672 E0.02349
G1 X47.739 Y58.08 E0.02352
G1 X47.653 Y57.476 E0.02335
G1 X47.509 Y56.95 E0.02087
G1 X47.425 Y56.341 E0.02353
G1 X47.421 Y55.727 E0.0235
G1 X47.497 Y55.117 E0.02353
G1 X47.625 Y54.603 E0.02027
G1 X47.679 Y54.429 E0.00697
G1 X47.899 Y53.855 E0.02353
G1 X48.21 Y53.286 E0.02482
G1 X48.362 Y53.048 E0.01081
G1 X48.6 Y52.709 E0.01585
G1 X48.804 Y52.444 E0.0128
G1 X49.21 Y51.982 E0.02354
G1 X49.606 Y51.629 E0.0203
G1 X49.746 Y51.517 E0.00686
G1 X49.887 Y51.394 E0.00716
G1 X50.383 Y51.014 E0.02391
G1 X50.907 Y50.665 E0.02409
G1 X51.099 Y50.544 E0.00869
G1 X51.769 Y50.143 E0.02988
G1 X52.239 Y49.896 E0.02032
G1 X52.467 Y49.792 E0.00959
G1 X52.462 Y49.614 E0.00681
G1 X52.525 Y49.002 E0.02354
G1 X52.668 Y48.405 E0.02349
G1 X52.733 Y48.229 E0.00718
G1 X52.81 Y47.681 E0.02118
G1 X52.974 Y47.088 E0.02355
G1 X53.214 Y46.523 E0.02349
G1 X53.513 Y46.035 E0.0219
G1 X53.596 Y45.885 E0.00656
G1 X53.971 Y45.309 E0.0263
G1 X54.111 Y45.124 E0.00888
G1 X54.162 Y44.688 E0.0168
G1 X54.311 Y44.091 E0.02355
G1 X54.536 Y43.52 E0.02349
G1 X54.796 Y43.051 E0.02052
G0 F1620 X54.834 Y42.982
G0 X55.199 Y42.488
G0 F4320 X55.54 Y42.629
G1 F1800 X55.961 Y42.215 E0.0226
G1 X56.435 Y41.861 E0.02264
G1 X56.952 Y41.574 E0.02263
G1 X57.503 Y41.36 E0.02262
G1 X58.078 Y41.222 E0.02263
G1 X58.666 Y41.162 E0.02262
G1 X59.011 Y41.165 E0.0132
G1 X60.774 Y41.246 E0.06754
G1 X61.232 Y41.291 E0.01761
G1 X62.781 Y41.527 E0.05996
G1 X63.358 Y41.655 E0.02262
G1 X63.913 Y41.86 E0.02264
G1 X64.435 Y42.138 E0.02263
G1 X64.914 Y42.484 E0.02261
G1 X65.343 Y42.891 E0.02263
G1 X65.713 Y43.353 E0.02265
G1 X66.017 Y43.86 E0.02262
G1 X66.25 Y44.403 E0.02261
G1 X66.408 Y44.973 E0.02264
G1 X66.487 Y45.559 E0.02263
G1 X66.473 Y46.309 E0.02871
G1 X66.459 Y46.447 E0.00531
G1 X66.607 Y46.762 E0.01332
G1 X66.784 Y47.326 E0.02262
G1 X66.883 Y47.909 E0.02263
G1 X66.891 Y48.119 E0.00804
G1 X66.95 Y48.506 E0.01498
G1 X67.09 Y49.982 E0.05674
G1 X67.341 Y50.074 E0.01023
G1 X67.767 Y50.292 E0.01831
G1 X69.155 Y51.101 E0.06148
G1 X69.645 Y51.433 E0.02265
G1 X69.962 Y51.706 E0.01601
G1 X70.185 Y51.917 E0.01175
G1 X70.222 Y51.948 E0.00185
G1 X70.832 Y52.563 E0.03315
G1 X70.992 Y52.76 E0.00971
G1 X71.202 Y53.041 E0.01343
G1 X71.371 Y53.287 E0.01142
G1 X71.665 Y53.782 E0.02203
G1 X71.758 Y53.965 E0.00786
G1 X71.99 Y54.509 E0.02263
G1 X72.146 Y55.079 E0.02262
G1 X72.195 Y55.372 E0.01137
G1 X72.206 Y55.455 E0.0032
G1 X72.216 Y55.61 E0.00594
G1 X72.267 Y55.865 E0.00995
G1 X72.319 Y56.218 E0.01366
G1 X72.366 Y56.808 E0.02265
G1 X72.332 Y57.398 E0.02262
G1 X72.22 Y57.979 E0.02264
G1 X72.03 Y58.539 E0.02263
G1 X71.766 Y59.068 E0.02263
G1 X71.433 Y59.556 E0.02261
G1 X71.038 Y59.996 E0.02263
G1 X70.527 Y60.421 E0.02544
G1 X70.274 Y60.601 E0.01188
G1 X70.233 Y60.626 E0.00184
G1 X70.199 Y60.654 E0.00169
G1 X70.079 Y60.74 E0.00565
G1 X69.576 Y61.051 E0.02263
G1 X69.036 Y61.292 E0.02263
G1 X68.468 Y61.457 E0.02264
G1 X67.883 Y61.545 E0.02264
G1 X67.788 Y61.549 E0.00364
G1 X67.783 Y61.55 E0.0002
G1 X67.195 Y61.605 E0.0226
G1 X66.604 Y61.579 E0.02264
G1 X66.022 Y61.475 E0.02263
G1 X65.46 Y61.292 E0.02262
G1 X65.122 Y61.13 E0.01434
G1 X65.072 Y61.403 E0.01062
G1 X64.947 Y61.81 E0.01629
G1 X64.773 Y62.293 E0.01965
G1 X64.536 Y62.834 E0.0226
G1 X64.386 Y63.098 E0.01162
G1 X64.305 Y63.23 E0.00593
G1 X64.512 Y63.379 E0.00976
G1 X64.94 Y63.787 E0.02263
G1 X65.309 Y64.249 E0.02263
G1 X65.612 Y64.757 E0.02264
G1 X65.844 Y65.3 E0.0226
G1 X66.001 Y65.87 E0.02263
G1 X66.08 Y66.456 E0.02263
G1 X66.075 Y67.094 E0.02442
G1 X66.034 Y67.601 E0.01947
G1 X66.039 Y67.704 E0.00395
G1 X66.036 Y67.848 E0.00551
G1 X66.434 Y67.93 E0.01555
G1 X66.992 Y68.126 E0.02263
G1 X67.088 Y68.175 E0.00412
G1 X67.369 Y68.227 E0.01094
G1 X67.931 Y68.411 E0.02263
G1 X68.463 Y68.669 E0.02263
G1 X68.955 Y68.997 E0.02263
G1 X69.399 Y69.388 E0.02264
