;FLAVOR:RepRap
;TIME:5562
;Filament used: 3.39958m
;Layer height: 0.21875
;MINX:31.03
;MINY:40.732
;MINZ:0.219
;MAXX:88.968
;MAXY:79.268
;MAXZ:16.863
;Generated with Cura_SteamEngine 4.3.0
T0
M190 S65
M104 S210
M109 S210
M82 ;absolute extrusion mode
G21        ;metric values
G90        ;absolute positioning
M82        ;set extruder to absolute mode
M107       ;start with the fan off
G28 X0 Y0  ;move X/Y to min endstops
G28 Z0     ;move Z to min endstops
G1 Z15.0 F6000 ;move the platform down 15mm
G92 E0                  ;zero the extruded length
G1 F200 E3              ;extrude 3mm of feed stock
G92 E0                  ;zero the extruded length again
G1 F6000
M117 Printing...
M83 ;relative extrusion mode
G1 F2400 E-4
;LAYER_COUNT:78
;LAYER:0
M107
G0 F1200 X32.422 Y41.467 Z0.219
;TYPE:SKIRT
G1 F2400 E4
G1 F600 X32.866 Y41.177 E0.0169
G1 X33.349 Y40.957 E0.01691
G1 X33.86 Y40.812 E0.01693
G1 X34.465 Y40.742 E0.01941
G1 X34.786 Y40.733 E0.01023
G1 X34.885 Y40.732 E0.00316
G1 X84.786 Y40.732 E1.59021
G1 X85.484 Y40.742 E0.02225
G1 X86.013 Y40.79 E0.01693
G1 X86.528 Y40.916 E0.0169
G1 X87.019 Y41.118 E0.01692
G1 X87.474 Y41.392 E0.01693
G1 X87.882 Y41.731 E0.0169
G1 X88.235 Y42.127 E0.01691
G1 X88.525 Y42.572 E0.01693
G1 X88.744 Y43.055 E0.0169
G1 X88.889 Y43.566 E0.01693
G1 X88.958 Y44.168 E0.01931
G1 X88.967 Y44.488 E0.0102
G1 X88.968 Y44.587 E0.00316
G1 X88.968 Y75.051 E0.97081
G1 X88.959 Y75.778 E0.02317
G1 X88.912 Y76.306 E0.01689
G1 X88.787 Y76.822 E0.01692
G1 X88.586 Y77.313 E0.01691
G1 X88.313 Y77.768 E0.01691
G1 X87.975 Y78.177 E0.01691
G1 X87.579 Y78.531 E0.01693
G1 X87.135 Y78.821 E0.0169
G1 X86.652 Y79.042 E0.01693
G1 X86.142 Y79.187 E0.0169
G1 X85.533 Y79.258 E0.01954
G1 X85.212 Y79.267 E0.01023
G1 X85.113 Y79.268 E0.00316
G1 X35.217 Y79.268 E1.59005
G1 X34.519 Y79.259 E0.02225
G1 X33.99 Y79.212 E0.01692
G1 X33.474 Y79.086 E0.01693
G1 X32.983 Y78.885 E0.01691
G1 X32.528 Y78.612 E0.01691
G1 X32.119 Y78.274 E0.01691
G1 X31.766 Y77.878 E0.01691
G1 X31.476 Y77.434 E0.0169
G1 X31.256 Y76.951 E0.01691
G1 X31.11 Y76.44 E0.01694
G1 X31.04 Y75.829 E0.0196
G1 X31.031 Y75.496 E0.01062
G1 X31.03 Y75.401 E0.00303
G1 X31.03 Y44.883 E0.97253
G1 X31.039 Y44.218 E0.02119
G1 X31.086 Y43.69 E0.01689
G1 X31.212 Y43.174 E0.01693
G1 X31.414 Y42.683 E0.01692
G1 X31.687 Y42.229 E0.01688
G1 X31.832 Y42.054 E0.00724
G0 F540 X32.026 Y41.82
G0 X32.422 Y41.467
G0 F1200 X32.759 Y41.654
G1 F600 X33.195 Y41.401 E0.01606
G1 X33.665 Y41.221 E0.01604
G1 X34.158 Y41.117 E0.01606
G1 X34.475 Y41.092 E0.01013
G1 X34.796 Y41.083 E0.01023
G1 X34.885 Y41.082 E0.00284
G1 X84.781 Y41.082 E1.59005
G1 X85.479 Y41.092 E0.02225
G1 X85.981 Y41.139 E0.01607
G1 X86.468 Y41.265 E0.01603
G1 X86.93 Y41.467 E0.01607
G1 X87.354 Y41.738 E0.01604
G1 X87.73 Y42.074 E0.01607
G1 X88.048 Y42.464 E0.01604
G1 X88.3 Y42.9 E0.01605
G1 X88.48 Y43.37 E0.01604
G1 X88.583 Y43.863 E0.01605
G1 X88.608 Y44.178 E0.01007
G1 X88.617 Y44.498 E0.0102
G1 X88.618 Y44.587 E0.00284
G1 X88.618 Y75.046 E0.97065
G1 X88.609 Y75.773 E0.02317
G1 X88.563 Y76.275 E0.01606
G1 X88.438 Y76.763 E0.01605
G1 X88.237 Y77.225 E0.01606
G1 X87.966 Y77.649 E0.01604
G1 X87.632 Y78.025 E0.01603
G1 X87.242 Y78.344 E0.01606
G1 X86.806 Y78.597 E0.01606
G1 X86.336 Y78.778 E0.01605
G1 X85.844 Y78.882 E0.01603
G1 X85.523 Y78.908 E0.01026
G1 X85.202 Y78.917 E0.01023
G1 X85.113 Y78.918 E0.00284
G1 X35.221 Y78.918 E1.58993
G1 X34.523 Y78.909 E0.02225
G1 X34.022 Y78.862 E0.01604
G1 X33.534 Y78.737 E0.01605
G1 X33.072 Y78.537 E0.01604
G1 X32.648 Y78.265 E0.01605
G1 X32.271 Y77.931 E0.01605
G1 X31.953 Y77.54 E0.01606
G1 X31.7 Y77.105 E0.01604
G1 X31.519 Y76.635 E0.01605
G1 X31.415 Y76.142 E0.01606
G1 X31.39 Y75.82 E0.01029
G1 X31.381 Y75.487 E0.01062
G1 X31.38 Y75.401 E0.00274
G1 X31.38 Y44.888 E0.97237
G1 X31.389 Y44.223 E0.02119
G1 X31.436 Y43.722 E0.01604
G1 X31.561 Y43.234 E0.01605
G1 X31.762 Y42.772 E0.01606
G1 X32.034 Y42.348 E0.01605
G1 X32.149 Y42.219 E0.00551
G0 F540 X32.369 Y41.972
G0 X32.759 Y41.654
G1 F2400 E-4
;MESH:alps_3d.stl
G0 F1200 X35.615 Y43.592
G0 X35.615 Y45.317
G0 X84.395 Y74.868
;TYPE:WALL-INNER
G1 F2400 E4
G1 F600 X35.43 Y74.868 E1.56039
G1 X35.43 Y45.132 E0.94761
G1 X84.568 Y45.132 E1.5659
G1 X84.57 Y74.693 E0.94203
G1 X84.57 Y74.868 E0.00558
G1 X84.395 Y74.868 E0.00361
G0 F1200 X84.745 Y75.218
G1 F600 X35.08 Y75.218 E1.58269
G1 X35.08 Y44.782 E0.96992
G1 X84.918 Y44.782 E1.58821
G1 X84.92 Y75.043 E0.96434
G1 X84.92 Y75.218 E0.00558
G1 X84.745 Y75.218 E0.00361
G0 F1200 X85.244 Y75.543
;TYPE:WALL-OUTER
G1 F600 X85.153 Y75.543 E0.0029
G1 X34.755 Y75.543 E1.60605
G1 X34.755 Y44.457 E0.99063
G1 X85.243 Y44.457 E1.60892
G1 X85.245 Y74.709 E0.96405
G0 F540 X85.245 Y75.285
G0 X85.245 Y75.376
G0 X85.244 Y75.543
G0 F1200 X85.153 Y75.543
G0 X85.044 Y75.543
G0 X85.044 Y75.268
G0 X84.485 Y74.528
G0 X84.23 Y74.528
;TYPE:SKIN
G1 F600 X35.77 Y74.528 E1.54429
G1 X35.77 Y45.472 E0.92594
G1 X84.228 Y45.472 E1.54423
G1 X84.23 Y73.694 E0.89936
G0 F540 X84.23 Y74.528
G0 F1200 X84.485 Y74.528
G0 X84.484 Y45.957
G0 X84.07 Y45.957
G1 F600 X83.741 Y45.628 E0.01483
G0 F1200 X83.246 Y45.628
G1 F600 X84.07 Y46.452 E0.03714
G0 F1200 X84.07 Y46.947
G1 F600 X82.751 Y45.628 E0.05944
G0 F1200 X82.257 Y45.628
G1 F600 X84.07 Y47.442 E0.08173
G0 F1200 X84.07 Y47.937
G1 F600 X81.762 Y45.628 E0.10404
G0 F1200 X81.267 Y45.628
G1 F600 X84.07 Y48.432 E0.12635
G0 F1200 X84.07 Y48.927
G1 F600 X80.772 Y45.628 E0.14865
G0 F1200 X80.277 Y45.628
G1 F600 X84.07 Y49.422 E0.17096
G0 F1200 X84.07 Y49.917
G1 F600 X79.782 Y45.628 E0.19327
G0 F1200 X79.287 Y45.628
G1 F600 X84.07 Y50.412 E0.21558
G0 F1200 X84.07 Y50.907
G1 F600 X78.792 Y45.628 E0.23789
G0 F1200 X78.297 Y45.628
G1 F600 X84.07 Y51.402 E0.2602
G0 F1200 X84.07 Y51.897
G1 F600 X77.802 Y45.628 E0.2825
G0 F1200 X77.307 Y45.628
G1 F600 X84.07 Y52.392 E0.30481
G0 F1200 X84.07 Y52.887
G1 F600 X76.812 Y45.628 E0.32712
G0 F1200 X76.317 Y45.628
G1 F600 X84.07 Y53.382 E0.34943
G0 F1200 X84.07 Y53.877
G1 F600 X75.822 Y45.628 E0.37174
G0 F1200 X75.327 Y45.628
G1 F600 X84.07 Y54.372 E0.39405
G0 F1200 X84.07 Y54.867
G1 F600 X74.832 Y45.628 E0.41635
G0 F1200 X74.337 Y45.628
G1 F600 X84.071 Y55.362 E0.43868
G0 F1200 X84.071 Y55.857
G1 F600 X73.842 Y45.628 E0.46099
G0 F1200 X73.347 Y45.628
G1 F600 X84.071 Y56.352 E0.4833
G0 F1200 X84.071 Y56.847
G1 F600 X72.852 Y45.628 E0.50561
G0 F1200 X72.357 Y45.628
G1 F600 X84.071 Y57.342 E0.52792
G0 F1200 X84.071 Y57.837
G1 F600 X71.862 Y45.628 E0.55023
G0 F1200 X71.367 Y45.628
G1 F600 X84.071 Y58.332 E0.57253
G0 F1200 X84.071 Y58.827
G1 F600 X70.872 Y45.628 E0.59484
G0 F1200 X70.377 Y45.628
G1 F600 X84.071 Y59.322 E0.61715
G0 F1200 X84.071 Y59.817
G1 F600 X69.882 Y45.628 E0.63946
G0 F1200 X69.387 Y45.628
G1 F600 X84.071 Y60.312 E0.66177
G0 F1200 X84.071 Y60.807
G1 F600 X68.892 Y45.628 E0.68408
G0 F1200 X68.397 Y45.628
G1 F600 X84.071 Y61.302 E0.70638
G0 F1200 X84.071 Y61.797
G1 F600 X67.902 Y45.628 E0.72869
G0 F1200 X67.407 Y45.628
G1 F600 X84.071 Y62.292 E0.751
G0 F1200 X84.071 Y62.787
G1 F600 X66.912 Y45.628 E0.77331
G0 F1200 X66.417 Y45.628
G1 F600 X84.071 Y63.282 E0.79562
G0 F1200 X84.071 Y63.777
G1 F600 X65.922 Y45.628 E0.81793
G0 F1200 X65.427 Y45.628
G1 F600 X84.071 Y64.272 E0.84023
G0 F1200 X84.071 Y64.767
G1 F600 X64.932 Y45.628 E0.86254
G0 F1200 X64.437 Y45.628
G1 F600 X84.072 Y65.263 E0.8849
G0 F1200 X84.072 Y65.758
G1 F600 X63.942 Y45.628 E0.9072
G0 F1200 X63.447 Y45.628
G1 F600 X84.072 Y66.253 E0.92951
G0 F1200 X84.072 Y66.748
G1 F600 X62.953 Y45.628 E0.9518
G0 F1200 X62.458 Y45.628
G1 F600 X84.072 Y67.243 E0.97411
G0 F1200 X84.072 Y67.738
G1 F600 X61.963 Y45.628 E0.99641
G0 F1200 X61.468 Y45.628
G1 F600 X84.072 Y68.232 E1.0187
G0 F1200 X84.072 Y68.727
G1 F600 X60.973 Y45.628 E1.04101
G0 F1200 X60.478 Y45.628
G1 F600 X84.072 Y69.222 E1.06332
G0 F1200 X84.072 Y69.717
G1 F600 X59.983 Y45.628 E1.08563
G0 F1200 X59.488 Y45.628
G1 F600 X84.072 Y70.212 E1.10793
G0 F1200 X84.072 Y70.707
G1 F600 X58.993 Y45.628 E1.13024
G0 F1200 X58.498 Y45.628
G1 F600 X84.072 Y71.202 E1.15255
G0 F1200 X84.072 Y71.697
G1 F600 X58.003 Y45.628 E1.17486
G0 F1200 X57.508 Y45.628
G1 F600 X84.072 Y72.192 E1.19717
G0 F1200 X84.072 Y72.687
G1 F600 X57.013 Y45.628 E1.21948
G0 F1200 X56.518 Y45.628
G1 F600 X84.072 Y73.182 E1.24178
G0 F1200 X84.072 Y73.677
G1 F600 X56.023 Y45.628 E1.26409
G0 F1200 X55.528 Y45.628
G1 F600 X84.072 Y74.172 E1.2864
G0 F1200 X83.775 Y74.37
G1 F600 X55.033 Y45.628 E1.29532
G0 F1200 X54.538 Y45.628
G1 F600 X83.28 Y74.37 E1.29532
G0 F1200 X82.785 Y74.37
G1 F600 X54.043 Y45.628 E1.29532
G0 F1200 X53.548 Y45.628
G1 F600 X82.29 Y74.37 E1.29532
G0 F1200 X81.795 Y74.37
G1 F600 X53.053 Y45.628 E1.29532
G0 F1200 X52.558 Y45.628
G1 F600 X81.3 Y74.37 E1.29532
G0 F1200 X80.805 Y74.37
G1 F600 X52.063 Y45.628 E1.29532
G0 F1200 X51.568 Y45.628
G1 F600 X80.31 Y74.37 E1.29532
G0 F1200 X79.815 Y74.37
G1 F600 X51.073 Y45.628 E1.29532
G0 F1200 X50.578 Y45.628
G1 F600 X79.32 Y74.37 E1.29532
G0 F1200 X78.825 Y74.37
G1 F600 X50.083 Y45.628 E1.29532
G0 F1200 X49.588 Y45.628
G1 F600 X78.33 Y74.37 E1.29532
G0 F1200 X77.835 Y74.37
G1 F600 X49.093 Y45.628 E1.29532
G0 F1200 X48.598 Y45.628
G1 F600 X77.34 Y74.37 E1.29532
G0 F1200 X76.845 Y74.37
G1 F600 X48.103 Y45.628 E1.29532
G0 F1200 X47.608 Y45.628
G1 F600 X76.35 Y74.37 E1.29532
G0 F1200 X75.855 Y74.37
G1 F600 X47.113 Y45.628 E1.29532
G0 F1200 X46.618 Y45.628
G1 F600 X75.36 Y74.37 E1.29532
G0 F1200 X74.865 Y74.37
G1 F600 X46.123 Y45.628 E1.29532
G0 F1200 X45.628 Y45.628
G1 F600 X74.37 Y74.37 E1.29532
G0 F1200 X73.875 Y74.37
G1 F600 X45.133 Y45.628 E1.29532
G0 F1200 X44.638 Y45.628
G1 F600 X73.38 Y74.37 E1.29532
G0 F1200 X72.885 Y74.37
G1 F600 X44.143 Y45.628 E1.29532
G0 F1200 X43.648 Y45.628
G1 F600 X72.39 Y74.37 E1.29532
G0 F1200 X71.895 Y74.37
G1 F600 X43.154 Y45.628 E1.2953
G0 F1200 X42.659 Y45.628
G1 F600 X71.4 Y74.37 E1.2953
G0 F1200 X70.905 Y74.37
G1 F600 X42.164 Y45.628 E1.2953
G0 F1200 X41.669 Y45.628
G1 F600 X70.41 Y74.37 E1.2953
G0 F1200 X69.915 Y74.37
G1 F600 X41.174 Y45.628 E1.2953
G0 F1200 X40.679 Y45.628
G1 F600 X69.42 Y74.37 E1.2953
G0 F1200 X68.925 Y74.37
G1 F600 X40.184 Y45.628 E1.2953
G0 F1200 X39.689 Y45.628
G1 F600 X68.43 Y74.37 E1.2953
G0 F1200 X67.935 Y74.37
G1 F600 X39.194 Y45.628 E1.2953
G0 F1200 X38.699 Y45.628
G1 F600 X67.441 Y74.37 E1.29532
G0 F1200 X66.946 Y74.37
G1 F600 X38.204 Y45.628 E1.29532
G0 F1200 X37.709 Y45.628
G1 F600 X66.451 Y74.37 E1.29532
G0 F1200 X65.956 Y74.37
G1 F600 X37.214 Y45.628 E1.29532
G0 F1200 X36.719 Y45.628
G1 F600 X65.461 Y74.37 E1.29532
G0 F1200 X64.966 Y74.37
G1 F600 X36.224 Y45.628 E1.29532
G0 F1200 X35.926 Y45.826
G1 F600 X64.471 Y74.37 E1.28642
G0 F1200 X63.976 Y74.37
G1 F600 X35.926 Y46.321 E1.26411
G0 F1200 X35.926 Y46.816
G1 F600 X63.481 Y74.37 E1.24181
G0 F1200 X62.986 Y74.37
G1 F600 X35.926 Y47.311 E1.2195
G0 F1200 X35.926 Y47.806
G1 F600 X62.491 Y74.37 E1.19719
G0 F1200 X61.996 Y74.37
G1 F600 X35.926 Y48.301 E1.17488
G0 F1200 X35.926 Y48.796
G1 F600 X61.501 Y74.37 E1.15257
G0 F1200 X61.006 Y74.37
G1 F600 X35.926 Y49.29 E1.13029
G0 F1200 X35.926 Y49.785
G1 F600 X60.511 Y74.37 E1.10798
G0 F1200 X60.016 Y74.37
G1 F600 X35.926 Y50.28 E1.08567
G0 F1200 X35.926 Y50.775
G1 F600 X59.521 Y74.37 E1.06336
G0 F1200 X59.026 Y74.37
G1 F600 X35.926 Y51.27 E1.04105
G0 F1200 X35.926 Y51.765
G1 F600 X58.531 Y74.37 E1.01875
G0 F1200 X58.036 Y74.37
G1 F600 X35.926 Y52.26 E0.99644
G0 F1200 X35.926 Y52.755
G1 F600 X57.541 Y74.37 E0.97413
G0 F1200 X57.046 Y74.37
G1 F600 X35.926 Y53.25 E0.95182
G0 F1200 X35.926 Y53.745
G1 F600 X56.551 Y74.37 E0.92951
G0 F1200 X56.056 Y74.37
G1 F600 X35.926 Y54.24 E0.9072
G0 F1200 X35.926 Y54.735
G1 F600 X55.561 Y74.37 E0.8849
G0 F1200 X55.066 Y74.37
G1 F600 X35.926 Y55.23 E0.86259
G0 F1200 X35.926 Y55.725
G1 F600 X54.571 Y74.37 E0.84028
G0 F1200 X54.076 Y74.37
G1 F600 X35.926 Y56.22 E0.81797
G0 F1200 X35.926 Y56.715
G1 F600 X53.581 Y74.37 E0.79566
G0 F1200 X53.086 Y74.37
G1 F600 X35.926 Y57.21 E0.77335
G0 F1200 X35.926 Y57.705
G1 F600 X52.591 Y74.37 E0.75105
G0 F1200 X52.096 Y74.37
G1 F600 X35.926 Y58.2 E0.72874
G0 F1200 X35.926 Y58.695
G1 F600 X51.601 Y74.37 E0.70643
G0 F1200 X51.106 Y74.37
G1 F600 X35.926 Y59.19 E0.68412
G0 F1200 X35.926 Y59.685
G1 F600 X50.611 Y74.37 E0.66181
G0 F1200 X50.116 Y74.37
G1 F600 X35.926 Y60.18 E0.6395
G0 F1200 X35.926 Y60.675
G1 F600 X49.621 Y74.37 E0.6172
G0 F1200 X49.126 Y74.37
G1 F600 X35.926 Y61.17 E0.59489
G0 F1200 X35.926 Y61.665
G1 F600 X48.631 Y74.37 E0.57258
G0 F1200 X48.137 Y74.37
G1 F600 X35.926 Y62.16 E0.55029
G0 F1200 X35.926 Y62.655
G1 F600 X47.642 Y74.37 E0.52799
G0 F1200 X47.147 Y74.37
G1 F600 X35.926 Y63.15 E0.50568
G0 F1200 X35.926 Y63.645
G1 F600 X46.652 Y74.37 E0.48337
G0 F1200 X46.157 Y74.37
G1 F600 X35.926 Y64.14 E0.46106
G0 F1200 X35.926 Y64.635
G1 F600 X45.662 Y74.37 E0.43875
G0 F1200 X45.167 Y74.37
G1 F600 X35.926 Y65.13 E0.41644
G0 F1200 X35.926 Y65.625
G1 F600 X44.672 Y74.37 E0.39414
G0 F1200 X44.177 Y74.37
G1 F600 X35.926 Y66.12 E0.37183
G0 F1200 X35.926 Y66.615
G1 F600 X43.682 Y74.37 E0.34952
G0 F1200 X43.187 Y74.37
G1 F600 X35.926 Y67.11 E0.32721
G0 F1200 X35.926 Y67.605
G1 F600 X42.692 Y74.37 E0.3049
G0 F1200 X42.197 Y74.37
G1 F600 X35.926 Y68.1 E0.28259
G0 F1200 X35.926 Y68.595
G1 F600 X41.702 Y74.37 E0.26029
G0 F1200 X41.207 Y74.37
G1 F600 X35.926 Y69.089 E0.238
G0 F1200 X35.926 Y69.584
G1 F600 X40.712 Y74.37 E0.21569
G0 F1200 X40.217 Y74.37
G1 F600 X35.926 Y70.079 E0.19338
G0 F1200 X35.926 Y70.574
G1 F600 X39.722 Y74.37 E0.17108
G0 F1200 X39.227 Y74.37
M104 S200
G1 F600 X35.926 Y71.069 E0.14877
G0 F1200 X35.926 Y71.564
G1 F600 X38.732 Y74.37 E0.12646
G0 F1200 X38.237 Y74.37
G1 F600 X35.926 Y72.059 E0.10415
G0 F1200 X35.926 Y72.554
G1 F600 X37.742 Y74.37 E0.08184
G0 F1200 X37.247 Y74.37
G1 F600 X35.926 Y73.049 E0.05953
G0 F1200 X35.926 Y73.544
G1 F600 X36.752 Y74.37 E0.03723
G0 F1200 X36.257 Y74.37
G1 F600 X35.926 Y74.039 E0.01492
G0 F1200 X35.28 Y74.039
;MESH:NONMESH
G0 F600 X35.28 Y74.039 Z0.438
G0 F1200 X35.587 Y74.711
G0 X84.395 Y74.868
;TIME_ELAPSED:535.586027
;LAYER:1
M140 S60
M106 S255
;TYPE:WALL-INNER
;MESH:alps_3d.stl
G1 F1800 X35.43 Y74.868 E1.56039
G1 X35.43 Y45.132 E0.94761
G1 X84.566 Y45.132 E1.56583
G1 X84.57 Y74.693 E0.94203
G1 X84.57 Y74.868 E0.00558
G1 X84.395 Y74.868 E0.00361
G0 F3600 X84.745 Y75.218
G1 F1800 X35.08 Y75.218 E1.58269
G1 X35.08 Y44.782 E0.96992
G1 X84.916 Y44.782 E1.58814
G1 X84.92 Y75.043 E0.96434
G1 X84.92 Y75.218 E0.00558
G1 X84.745 Y75.218 E0.00361
G0 F3600 X85.243 Y75.543
;TYPE:WALL-OUTER
G1 F1425 X85.153 Y75.543 E0.00287
G1 X34.755 Y75.543 E1.60605
G1 X34.755 Y44.457 E0.99063
G1 X85.241 Y44.457 E1.60886
G1 X85.245 Y74.709 E0.96405
G0 F1282.5 X85.245 Y75.284
G0 X85.245 Y75.374
G0 X85.243 Y75.543
G0 F3600 X85.153 Y75.543
G0 X85.043 Y75.543
G0 X85.043 Y75.268
G0 X84.485 Y74.528
G0 X84.23 Y74.528
;TYPE:SKIN
G1 F900 X35.77 Y74.528 E1.54429
G1 X35.77 Y45.472 E0.92594
G1 X84.226 Y45.472 E1.54417
G1 X84.23 Y73.694 E0.89936
G0 F810 X84.23 Y74.528
G0 F3600 X84.071 Y74.32
G1 F900 X84.021 Y74.37 E0.00225
G0 F3600 X83.526 Y74.37
G1 F900 X84.071 Y73.825 E0.02456
G0 F3600 X84.071 Y73.33
G1 F900 X83.031 Y74.37 E0.04687
G0 F3600 X82.536 Y74.37
G1 F900 X84.071 Y72.835 E0.06918
G0 F3600 X84.071 Y72.34
G1 F900 X82.041 Y74.37 E0.09149
G0 F3600 X81.546 Y74.37
G1 F900 X84.071 Y71.845 E0.11379
G0 F3600 X84.071 Y71.35
G1 F900 X81.051 Y74.37 E0.1361
G0 F3600 X80.556 Y74.37
G1 F900 X84.071 Y70.855 E0.15841
G0 F3600 X84.071 Y70.36
G1 F900 X80.061 Y74.37 E0.18072
G0 F3600 X79.566 Y74.37
G1 F900 X84.071 Y69.865 E0.20303
G0 F3600 X84.071 Y69.37
G1 F900 X79.071 Y74.37 E0.22534
G0 F3600 X78.576 Y74.37
G1 F900 X84.071 Y68.875 E0.24764
G0 F3600 X84.07 Y68.381
G1 F900 X78.081 Y74.37 E0.26991
G0 F3600 X77.586 Y74.37
G1 F900 X84.07 Y67.886 E0.29222
G0 F3600 X84.07 Y67.391
G1 F900 X77.091 Y74.37 E0.31452
G0 F3600 X76.596 Y74.37
G1 F900 X84.07 Y66.896 E0.33683
G0 F3600 X84.07 Y66.401
G1 F900 X76.101 Y74.37 E0.35914
G0 F3600 X75.606 Y74.37
G1 F900 X84.07 Y65.906 E0.38145
G0 F3600 X84.07 Y65.411
G1 F900 X75.111 Y74.37 E0.40376
G0 F3600 X74.616 Y74.37
