;FLAVOR:RepRap
;TIME:967
;Filament used: 0.145064m
;Layer height: 0.04375
;MINX:45.152
;MINY:40.756
;MINZ:0.263
;MAXX:74.845
;MAXY:79.236
;MAXZ:1.979
;Generated with Cura_SteamEngine 4.3.0
T0
M190 S65
M104 S205
M109 S205
M82 ;absolute extrusion mode
G21        ;metric values
G90        ;absolute positioning
M82        ;set extruder to absolute mode
M107       ;start with the fan off
G28 X0 Y0  ;move X/Y to min endstops
G28 Z0     ;move Z to min endstops
G1 Z15.0 F6000 ;move the platform down 15mm
G92 E0                  ;zero the extruded length
G1 F200 E3              ;extrude 3mm of feed stock
G92 E0                  ;zero the extruded length again
G1 F6000
M117 Printing...
M83 ;relative extrusion mode
G1 F2400 E-2.5
;LAYER_COUNT:40
;LAYER:0
M107
G0 F4320 X52.023 Y43.818 Z0.263
;TYPE:SKIRT
G1 F2400 E2.5
G1 F1800 X52.437 Y43.334 E0.02437
G1 X52.911 Y42.904 E0.02449
G1 X53.468 Y42.459 E0.02728
G1 X53.99 Y42.093 E0.0244
G1 X54.407 Y41.865 E0.01819
G1 X54.945 Y41.602 E0.02292
G1 X55.358 Y41.422 E0.01724
G1 X56.013 Y41.171 E0.02684
G1 X56.621 Y40.981 E0.02438
G1 X57.037 Y40.897 E0.01624
G1 X57.55 Y40.816 E0.01988
G1 X58.185 Y40.756 E0.02441
G1 X58.821 Y40.777 E0.02435
G1 X59.238 Y40.834 E0.01611
G1 X59.84 Y40.942 E0.02341
G1 X60.459 Y41.093 E0.02438
G1 X61.144 Y41.364 E0.02819
G1 X61.728 Y41.645 E0.0248
G1 X62.224 Y41.919 E0.02169
G1 X63.819 Y42.919 E0.07205
G1 X63.946 Y42.952 E0.00502
G1 X64.552 Y43.149 E0.02439
G1 X65.384 Y43.571 E0.0357
G1 X66.263 Y44.124 E0.03974
G1 X66.557 Y44.324 E0.01361
G1 X68.43 Y45.694 E0.08881
G1 X68.681 Y45.89 E0.01219
G1 X69.207 Y46.328 E0.0262
G1 X69.67 Y46.765 E0.02437
G1 X69.92 Y47.054 E0.01462
G1 X70.243 Y47.457 E0.01977
G1 X70.609 Y47.978 E0.02437
G1 X71.01 Y48.784 E0.03445
G1 X71.196 Y49.26 E0.01956
G1 X71.39 Y49.866 E0.02435
G1 X71.532 Y50.754 E0.03442
G1 X71.571 Y51.314 E0.02148
G1 X71.571 Y51.338 E0.00092
G1 X71.899 Y51.586 E0.01574
G1 X72.143 Y51.783 E0.012
G1 X72.561 Y52.142 E0.02109
G1 X73.206 Y52.809 E0.03551
G1 X73.533 Y53.215 E0.01995
G1 X73.901 Y53.735 E0.02438
G1 X74.198 Y54.29 E0.02409
G1 X74.324 Y54.566 E0.01161
G1 X74.551 Y55.161 E0.02437
G1 X74.656 Y55.549 E0.01538
G1 X74.719 Y55.826 E0.01087
G1 X74.821 Y56.454 E0.02435
G1 X74.845 Y56.981 E0.02019
G1 X74.843 Y57.325 E0.01317
G1 X74.751 Y58.259 E0.03592
G1 X74.685 Y58.6 E0.01329
G1 X74.419 Y59.51 E0.03628
G1 X74.104 Y60.303 E0.03265
G1 X73.949 Y60.653 E0.01465
G1 X73.637 Y61.293 E0.02725
G1 X73.364 Y61.783 E0.02147
G1 X73.047 Y62.284 E0.02269
G1 X72.673 Y62.799 E0.02436
G1 X72.287 Y63.217 E0.02177
G1 X71.856 Y63.634 E0.02295
G1 X71.644 Y63.809 E0.01052
G1 X71.528 Y64.382 E0.02237
G1 X71.419 Y64.819 E0.01724
G1 X71.167 Y65.67 E0.03397
G1 X70.948 Y66.268 E0.02437
G1 X70.648 Y66.849 E0.02502
G1 X70.422 Y67.224 E0.01676
G1 X70.059 Y67.747 E0.02436
G1 X69.634 Y68.222 E0.02439
G1 X69.325 Y68.502 E0.01596
G1 X69.03 Y68.748 E0.0147
G1 X68.828 Y68.895 E0.00956
G1 X68.335 Y69.686 E0.03567
G1 X68.196 Y69.897 E0.00967
G1 X67.848 Y70.397 E0.02331
G1 X67.843 Y70.464 E0.00257
G1 X67.725 Y71.042 E0.02258
G1 X67.564 Y71.649 E0.02403
G1 X67.454 Y72.012 E0.01452
G1 X66.854 Y73.741 E0.07004
G1 X66.562 Y74.417 E0.02818
G1 X66.232 Y75.052 E0.02739
G1 X65.904 Y75.598 E0.02438
G1 X65.331 Y76.287 E0.03429
G1 X64.805 Y76.817 E0.02858
G1 X64.329 Y77.24 E0.02437
G1 X64.06 Y77.436 E0.01274
G1 X63.414 Y77.876 E0.02991
G1 X62.792 Y78.238 E0.02754
G1 X62.007 Y78.623 E0.03346
G1 X61.418 Y78.868 E0.02441
G1 X60.725 Y79.052 E0.02744
G1 X60.181 Y79.156 E0.0212
G1 X59.549 Y79.236 E0.02438
G1 X58.912 Y79.236 E0.02438
G1 X58.363 Y79.172 E0.02115
G1 X57.86 Y79.085 E0.01954
G1 X57.241 Y78.937 E0.02436
G1 X56.644 Y78.713 E0.0244
G1 X56.258 Y78.519 E0.01653
G1 X55.866 Y78.301 E0.01717
G1 X55.33 Y77.957 E0.02437
G1 X54.787 Y77.496 E0.02726
G1 X54.223 Y76.945 E0.03017
G1 X53.862 Y76.554 E0.02037
G1 X52.877 Y75.366 E0.05906
G1 X52.708 Y75.15 E0.0105
G1 X51.853 Y73.997 E0.05493
G1 X51.526 Y73.498 E0.02283
G1 X51.248 Y73.013 E0.02139
G1 X50.967 Y72.441 E0.02439
G1 X50.849 Y72.128 E0.0128
G1 X50.544 Y71.671 E0.02103
G1 X50.327 Y71.279 E0.01715
G1 X50.044 Y70.679 E0.02539
G1 X49.627 Y69.619 E0.04359
G1 X49.503 Y69.265 E0.01435
G1 X49.37 Y68.837 E0.01715
G1 X49.224 Y68.708 E0.00746
G1 X48.831 Y68.291 E0.02193
G1 X48.424 Y67.801 E0.02438
G1 X48.04 Y67.187 E0.02771
G1 X47.768 Y66.674 E0.02222
G1 X47.5 Y66.078 E0.02501
G1 X47.054 Y64.888 E0.04863
G1 X46.909 Y64.439 E0.01806
G1 X46.739 Y63.814 E0.02479
G1 X46.611 Y63.19 E0.02438
G1 X46.562 Y62.579 E0.02346
G1 X46.556 Y62.264 E0.01206
G1 X46.557 Y62.234 E0.00115
G1 X46.527 Y62.177 E0.00247
G1 X46.387 Y61.892 E0.01215
G1 X45.841 Y60.686 E0.05066
G1 X45.651 Y60.203 E0.01986
G1 X45.475 Y59.677 E0.02123
G1 X45.311 Y59.062 E0.02436
G1 X45.249 Y58.673 E0.01507
G1 X45.188 Y58.166 E0.01954
G1 X45.152 Y57.53 E0.02438
G1 X45.222 Y56.722 E0.03104
G1 X45.306 Y56.22 E0.01948
G1 X45.45 Y55.6 E0.02436
G1 X45.675 Y54.993 E0.02477
G1 X45.899 Y54.49 E0.02107
G1 X46.257 Y53.825 E0.0289
G1 X46.867 Y52.869 E0.0434
G1 X46.881 Y52.849 E0.00093
G1 X46.902 Y52.65 E0.00766
G1 X46.987 Y52.15 E0.01941
G1 X47.065 Y51.775 E0.01466
G1 X47.439 Y50.273 E0.05924
G1 X47.57 Y49.833 E0.01757
G1 X47.75 Y49.315 E0.02099
G1 X48.143 Y48.454 E0.03622
G1 X48.348 Y48.097 E0.01575
G1 X48.699 Y47.566 E0.02436
G1 X48.949 Y47.26 E0.01512
G1 X49.204 Y46.972 E0.01472
G1 X49.656 Y46.522 E0.02441
G1 X49.927 Y46.301 E0.01338
G1 X50.98 Y45.498 E0.05068
G1 X51.101 Y45.414 E0.00564
G1 X51.135 Y45.326 E0.00361
G1 X51.33 Y44.95 E0.01621
G1 X51.645 Y44.4 E0.02426
G0 F1620 X51.673 Y44.35
G0 X52.023 Y43.818
G0 F4320 X52.316 Y44.011
G1 F1800 X52.719 Y43.547 E0.02352
G1 X53.13 Y43.177 E0.02116
G1 X53.687 Y42.732 E0.02728
G1 X54.191 Y42.381 E0.0235
G1 X54.561 Y42.179 E0.01613
G1 X55.099 Y41.916 E0.02292
G1 X55.483 Y41.749 E0.01603
G1 X56.138 Y41.498 E0.02684
G1 X56.725 Y41.316 E0.02352
G1 X57.092 Y41.243 E0.01432
G1 X57.605 Y41.162 E0.01988
G1 X58.217 Y41.106 E0.02352
G1 X58.831 Y41.129 E0.02351
G1 X59.176 Y41.178 E0.01334
G1 X59.778 Y41.286 E0.02341
G1 X60.375 Y41.434 E0.02354
G1 X60.993 Y41.679 E0.02544
G1 X61.577 Y41.96 E0.0248
G1 X62.039 Y42.215 E0.0202
G1 X63.682 Y43.245 E0.07421
G1 X63.859 Y43.291 E0.007
G1 X64.443 Y43.482 E0.02351
G1 X65.198 Y43.868 E0.03245
G1 X66.077 Y44.421 E0.03974
G1 X66.351 Y44.606 E0.01265
G1 X68.224 Y45.976 E0.08881
G1 X68.458 Y46.159 E0.01137
G1 X68.984 Y46.597 E0.0262
G1 X69.429 Y47.02 E0.0235
G1 X69.647 Y47.273 E0.01278
G1 X69.97 Y47.676 E0.01977
G1 X70.322 Y48.179 E0.0235
G1 X70.684 Y48.911 E0.03125
G1 X70.87 Y49.387 E0.01956
G1 X71.056 Y49.973 E0.02353
G1 X71.183 Y50.779 E0.03123
G1 X71.222 Y51.339 E0.02148
G1 X71.223 Y51.513 E0.00666
G1 X71.687 Y51.865 E0.02229
G1 X71.915 Y52.049 E0.01121
G1 X72.333 Y52.408 E0.02109
G1 X72.934 Y53.028 E0.03305
G1 X73.261 Y53.434 E0.01995
G1 X73.614 Y53.937 E0.02352
G1 X73.879 Y54.436 E0.02162
G1 X74.005 Y54.712 E0.01161
G1 X74.224 Y55.286 E0.02351
G1 X74.314 Y55.626 E0.01346
G1 X74.377 Y55.903 E0.01087
G1 X74.474 Y56.51 E0.02352
G1 X74.495 Y56.978 E0.01793
G1 X74.493 Y57.322 E0.01317
G1 X74.407 Y58.193 E0.0335
G1 X74.341 Y58.534 E0.01329
G1 X74.093 Y59.38 E0.03374
G1 X73.778 Y60.173 E0.03265
G1 X73.634 Y60.5 E0.01367
G1 X73.322 Y61.14 E0.02725
G1 X73.068 Y61.595 E0.01994
G1 X72.751 Y62.096 E0.02269
G1 X72.389 Y62.593 E0.02353
G1 X72.043 Y62.966 E0.01947
G1 X71.612 Y63.383 E0.02295
G1 X71.325 Y63.62 E0.01424
G1 X71.185 Y64.313 E0.02706
G1 X71.084 Y64.72 E0.01605
G1 X70.832 Y65.571 E0.03397
G1 X70.619 Y66.147 E0.0235
G1 X70.348 Y66.668 E0.02247
G1 X70.122 Y67.043 E0.01676
G1 X69.771 Y67.547 E0.0235
G1 X69.358 Y68.002 E0.02352
G1 X69.101 Y68.233 E0.01322
G1 X68.806 Y68.479 E0.0147
G1 X68.567 Y68.653 E0.01131
G1 X68.038 Y69.501 E0.03825
G1 X67.909 Y69.697 E0.00898
G1 X67.507 Y70.275 E0.02694
G1 X67.494 Y70.436 E0.00618
G1 X67.387 Y70.952 E0.02017
G1 X67.226 Y71.559 E0.02403
G1 X67.123 Y71.897 E0.01352
G1 X66.523 Y73.626 E0.07004
G1 X66.252 Y74.256 E0.02625
G1 X65.922 Y74.891 E0.02739
G1 X65.603 Y75.417 E0.02354
G1 X65.083 Y76.04 E0.03106
G1 X64.557 Y76.57 E0.02858
G1 X63.863 Y77.147 E0.03454
G1 X63.217 Y77.587 E0.02991
G1 X62.638 Y77.924 E0.02564
G1 X61.853 Y78.309 E0.03346
G1 X61.284 Y78.543 E0.02355
G1 X60.659 Y78.708 E0.02474
G1 X60.115 Y78.812 E0.0212
G1 X59.505 Y78.888 E0.02353
G1 X58.891 Y78.884 E0.0235
G1 X58.423 Y78.827 E0.01804
G1 X57.92 Y78.74 E0.01954
G1 X57.322 Y78.596 E0.02354
G1 X56.749 Y78.376 E0.02349
G1 X56.429 Y78.213 E0.01374
G1 X56.037 Y77.995 E0.01717
G1 X55.52 Y77.662 E0.02353
G1 X55.031 Y77.246 E0.02457
G1 X54.467 Y76.695 E0.03017
G1 X54.132 Y76.331 E0.01893
G1 X53.147 Y75.143 E0.05906
G1 X52.989 Y74.941 E0.00981
G1 X52.134 Y73.788 E0.05493
G1 X51.83 Y73.324 E0.02123
G1 X51.552 Y72.839 E0.02139
G1 X51.281 Y72.287 E0.02353
G1 X51.168 Y71.983 E0.01241
G1 X51.164 Y71.972 E0.00045
G1 X50.85 Y71.501 E0.02166
G1 X50.633 Y71.109 E0.01715
G1 X50.37 Y70.551 E0.02361
G1 X49.953 Y69.491 E0.04359
G1 X49.837 Y69.161 E0.01339
G1 X49.676 Y68.643 E0.02076
G1 X49.478 Y68.468 E0.01011
G1 X49.085 Y68.051 E0.02193
G1 X48.694 Y67.577 E0.02352
G1 X48.349 Y67.023 E0.02498
G1 X48.077 Y66.51 E0.02222
G1 X47.828 Y65.955 E0.02328
G1 X47.382 Y64.765 E0.04863
G1 X47.247 Y64.347 E0.01681
G1 X47.077 Y63.722 E0.02479
G1 X46.954 Y63.12 E0.02351
G1 X46.912 Y62.572 E0.02103
G1 X46.906 Y62.257 E0.01206
G1 X46.911 Y62.154 E0.00395
G1 X46.836 Y62.013 E0.00611
G1 X46.706 Y61.748 E0.0113
G1 X46.16 Y60.542 E0.05066
G1 X45.983 Y60.092 E0.01851
G1 X45.807 Y59.566 E0.02123
G1 X45.65 Y58.972 E0.02351
G1 X45.597 Y58.631 E0.01321
G1 X45.536 Y58.124 E0.01954
G1 X45.502 Y57.511 E0.0235
G1 X45.567 Y56.78 E0.02809
G1 X45.651 Y56.278 E0.01948
G1 X45.791 Y55.68 E0.0235
G1 X45.995 Y55.136 E0.02223
G1 X46.219 Y54.633 E0.02107
G1 X46.552 Y54.013 E0.02693
G1 X47.162 Y53.057 E0.0434
G1 X47.219 Y52.976 E0.00379
G1 X47.247 Y52.709 E0.01027
G1 X47.332 Y52.209 E0.01941
G1 X47.405 Y51.859 E0.01368
G1 X47.779 Y50.357 E0.05924
G1 X47.901 Y49.948 E0.01633
G1 X48.081 Y49.43 E0.02099
G1 X48.447 Y48.628 E0.03374
G1 X48.652 Y48.271 E0.01575
G1 X48.992 Y47.759 E0.02352
G1 X49.211 Y47.492 E0.01322
G1 X49.466 Y47.204 E0.01472
G1 X50.139 Y46.579 E0.03515
G1 X51.192 Y45.776 E0.05068
G1 X51.39 Y45.638 E0.00924
G1 X51.462 Y45.455 E0.00753
G1 X51.634 Y45.124 E0.01428
G1 X51.938 Y44.593 E0.02342
G0 F1620 X51.977 Y44.524
G0 X52.316 Y44.011
G0 F4320 X52.608 Y44.205
G1 F1800 X52.999 Y43.762 E0.02261
G1 X53.348 Y43.451 E0.01789
G1 X53.905 Y43.006 E0.02728
G1 X54.391 Y42.669 E0.02263
G1 X54.715 Y42.494 E0.01409
G1 X55.253 Y42.231 E0.02292
G1 X55.608 Y42.076 E0.01482
G1 X56.263 Y41.825 E0.02684
G1 X56.829 Y41.651 E0.02266
G1 X57.147 Y41.589 E0.0124
G1 X57.66 Y41.508 E0.01988
G1 X58.249 Y41.455 E0.02263
G1 X59.115 Y41.523 E0.03324
G1 X59.717 Y41.631 E0.02341
G1 X60.29 Y41.774 E0.0226
G1 X60.841 Y41.995 E0.02272
G1 X61.425 Y42.276 E0.0248
G1 X61.853 Y42.512 E0.0187
G1 X63.541 Y43.571 E0.07626
G1 X63.772 Y43.63 E0.00912
G1 X64.333 Y43.816 E0.02262
G1 X65.012 Y44.164 E0.0292
G1 X65.891 Y44.717 E0.03974
G1 X66.144 Y44.889 E0.01171
G1 X68.017 Y46.259 E0.08881
G1 X68.234 Y46.428 E0.01053
G1 X68.76 Y46.866 E0.0262
G1 X69.374 Y47.492 E0.03356
G1 X69.697 Y47.895 E0.01977
G1 X70.035 Y48.38 E0.02262
G1 X70.358 Y49.039 E0.02809
G1 X70.544 Y49.515 E0.01956
G1 X70.721 Y50.079 E0.02262
G1 X70.833 Y50.803 E0.02804
G1 X70.872 Y51.363 E0.02148
G1 X70.873 Y51.688 E0.01244
G1 X71.476 Y52.144 E0.02893
G1 X71.686 Y52.314 E0.01034
G1 X72.104 Y52.673 E0.02109
G1 X72.661 Y53.248 E0.03064
G1 X72.988 Y53.654 E0.01995
G1 X73.327 Y54.138 E0.02261
G1 X73.561 Y54.581 E0.01917
G1 X73.687 Y54.857 E0.01161
G1 X73.896 Y55.41 E0.02262
G1 X73.973 Y55.704 E0.01163
G1 X74.036 Y55.981 E0.01087
G1 X74.128 Y56.565 E0.02263
G1 X74.145 Y56.976 E0.01574
G1 X74.143 Y57.32 E0.01317
G1 X74.063 Y58.126 E0.031
G1 X73.997 Y58.467 E0.01329
G1 X73.768 Y59.251 E0.03126
G1 X73.453 Y60.044 E0.03265
G1 X73.32 Y60.346 E0.01263
G1 X73.008 Y60.986 E0.02725
G1 X72.772 Y61.408 E0.0185
G1 X72.455 Y61.909 E0.02269
G1 X72.106 Y62.386 E0.02262
G1 X71.8 Y62.714 E0.01717
G1 X71.369 Y63.131 E0.02295
G1 X71.005 Y63.431 E0.01805
G1 X70.841 Y64.244 E0.03174
G1 X70.748 Y64.62 E0.01482
G1 X70.496 Y65.471 E0.03397
G1 X70.29 Y66.026 E0.02266
G1 X70.048 Y66.487 E0.01993
G1 X69.822 Y66.862 E0.01676
G1 X69.483 Y67.347 E0.02265
G1 X68.877 Y67.964 E0.0331
G1 X68.582 Y68.21 E0.0147
G1 X68.307 Y68.409 E0.01299
G1 X67.741 Y69.316 E0.04091
G1 X67.621 Y69.498 E0.00834
G1 X67.166 Y70.153 E0.03052
G1 X67.144 Y70.406 E0.00972
G1 X67.049 Y70.863 E0.01786
G1 X66.888 Y71.47 E0.02403
G1 X66.792 Y71.782 E0.01249
G1 X66.192 Y73.511 E0.07004
G1 X65.941 Y74.094 E0.02429
G1 X65.611 Y74.729 E0.02739
G1 X65.304 Y75.234 E0.02262
G1 X64.834 Y75.794 E0.02798
G1 X64.308 Y76.324 E0.02858
G1 X63.666 Y76.858 E0.03196
G1 X63.02 Y77.298 E0.02991
G1 X62.483 Y77.61 E0.02377
G1 X61.698 Y77.995 E0.03346
G1 X61.151 Y78.219 E0.02262
G1 X60.594 Y78.364 E0.02203
G1 X60.05 Y78.468 E0.0212
G1 X59.463 Y78.54 E0.02263
G1 X58.871 Y78.531 E0.02266
G1 X58.482 Y78.482 E0.015
G1 X57.979 Y78.395 E0.01954
G1 X57.405 Y78.255 E0.02261
G1 X56.599 Y77.908 E0.03358
G1 X56.207 Y77.69 E0.01717
G1 X55.711 Y77.368 E0.02263
G1 X55.276 Y76.995 E0.02193
G1 X54.712 Y76.444 E0.03017
G1 X54.401 Y76.107 E0.01755
G1 X53.416 Y74.919 E0.05906
G1 X53.27 Y74.733 E0.00905
G1 X52.415 Y73.58 E0.05493
G1 X52.133 Y73.15 E0.01968
G1 X51.855 Y72.665 E0.02139
G1 X51.501 Y71.872 E0.03323
G1 X51.485 Y71.825 E0.0019
G1 X51.156 Y71.332 E0.02268
G1 X50.939 Y70.94 E0.01715
G1 X50.696 Y70.423 E0.02186
G1 X50.279 Y69.363 E0.04359
G1 X50.172 Y69.058 E0.01237
G1 X49.983 Y68.448 E0.02444
G1 X49.733 Y68.228 E0.01274
G1 X49.34 Y67.811 E0.02193
G1 X48.965 Y67.354 E0.02262
G1 X48.659 Y66.859 E0.02227
G1 X48.387 Y66.346 E0.02222
G1 X48.155 Y65.832 E0.02158
G1 X47.709 Y64.642 E0.04863
G1 X47.584 Y64.255 E0.01556
G1 X47.414 Y63.63 E0.02479
G1 X47.298 Y63.051 E0.0226
G1 X47.262 Y62.565 E0.01865
G1 X47.256 Y62.25 E0.01206
G1 X47.265 Y62.074 E0.00674
G1 X47.145 Y61.849 E0.00976
G1 X47.024 Y61.603 E0.01049
G1 X46.478 Y60.397 E0.05066
G1 X46.315 Y59.981 E0.0171
G1 X46.139 Y59.455 E0.02123
G1 X45.99 Y58.883 E0.02262
G1 X45.944 Y58.59 E0.01135
G1 X45.883 Y58.083 E0.01954
G1 X45.853 Y57.492 E0.02265
G1 X45.912 Y56.838 E0.02513
G1 X45.996 Y56.336 E0.01948
G1 X46.133 Y55.761 E0.02262
G1 X46.314 Y55.278 E0.01974
G1 X46.538 Y54.775 E0.02107
G1 X46.847 Y54.202 E0.02491
G1 X47.457 Y53.246 E0.0434
G1 X47.556 Y53.104 E0.00662
G1 X47.592 Y52.768 E0.01293
G1 X47.677 Y52.268 E0.01941
G1 X47.745 Y51.944 E0.01267
G1 X48.119 Y50.442 E0.05924
G1 X48.231 Y50.063 E0.01512
G1 X48.411 Y49.545 E0.02099
G1 X48.75 Y48.802 E0.03125
G1 X48.955 Y48.445 E0.01575
G1 X49.283 Y47.954 E0.0226
G1 X49.473 Y47.724 E0.01142
G1 X49.728 Y47.436 E0.01472
G1 X50.351 Y46.857 E0.03255
G1 X51.404 Y46.054 E0.05068
G1 X51.676 Y45.865 E0.01268
G1 X51.788 Y45.584 E0.01158
G1 X51.938 Y45.298 E0.01236
G1 X52.23 Y44.787 E0.02252
G0 F1620 X52.281 Y44.698
G0 X52.608 Y44.205
G0 F4320 X52.9 Y44.4
G1 F1800 X53.279 Y43.978 E0.02171
G1 X53.567 Y43.724 E0.0147
G1 X54.124 Y43.279 E0.02728
G1 X54.591 Y42.957 E0.02171
G1 X54.868 Y42.808 E0.01204
G1 X55.406 Y42.545 E0.02292
G1 X55.734 Y42.403 E0.01368
G1 X56.389 Y42.152 E0.02684
G1 X57.201 Y41.934 E0.03218
G1 X57.714 Y41.853 E0.01988
G1 X58.279 Y41.804 E0.0217
G1 X59.053 Y41.867 E0.02972
G1 X59.655 Y41.975 E0.02341
G1 X60.204 Y42.114 E0.02167
G1 X60.689 Y42.31 E0.02002
G1 X61.273 Y42.591 E0.0248
G1 X61.667 Y42.808 E0.01721
G1 X63.389 Y43.888 E0.07779
G1 X63.399 Y43.896 E0.00049
G1 X63.685 Y43.969 E0.0113
G1 X64.223 Y44.149 E0.02171
G1 X64.825 Y44.46 E0.02593
G1 X65.704 Y45.013 E0.03974
G1 X65.937 Y45.171 E0.01077
G1 X67.81 Y46.541 E0.08881
G1 X68.01 Y46.697 E0.00971
G1 X68.536 Y47.135 E0.0262
G1 X69.101 Y47.711 E0.03088
G1 X69.424 Y48.114 E0.01977
G1 X69.746 Y48.58 E0.02168
G1 X70.032 Y49.166 E0.02495
G1 X70.218 Y49.642 E0.01956
G1 X70.387 Y50.184 E0.02173
G1 X70.484 Y50.827 E0.02489
G1 X70.523 Y51.387 E0.02148
G1 X70.523 Y51.862 E0.01818
G1 X71.265 Y52.424 E0.03562
G1 X71.458 Y52.58 E0.0095
G1 X71.876 Y52.939 E0.02109
