;FLAVOR:RepRap
;TIME:4186
;Filament used: 0.560409m
;Layer height: 0.04375
;MINX:47.409
;MINY:48.894
;MINZ:0.263
;MAXX:73.06
;MAXY:71.449
;MAXZ:28.291
;Generated with Cura_SteamEngine 4.3.0
T0
M190 S65
M104 S205
M109 S205
M82 ;absolute extrusion mode
G21        ;metric values
G90        ;absolute positioning
M82        ;set extruder to absolute mode
M107       ;start with the fan off
G28 X0 Y0  ;move X/Y to min endstops
G28 Z0     ;move Z to min endstops
G1 Z15.0 F6000 ;move the platform down 15mm
G92 E0                  ;zero the extruded length
G1 F200 E3              ;extrude 3mm of feed stock
G92 E0                  ;zero the extruded length again
G1 F6000
M117 Printing...
M83 ;relative extrusion mode
G1 F2400 E-2.5
;LAYER_COUNT:640
;LAYER:0
M107
G0 F4320 X50.377 Y52.869 Z0.263
;TYPE:SKIRT
G1 F2400 E2.5
G1 F1800 X50.963 Y52.316 E0.03084
G1 X51.445 Y51.914 E0.02402
G1 X52.644 Y51.035 E0.0569
G1 X53.172 Y50.696 E0.02401
G1 X53.654 Y50.427 E0.02112
G1 X54.046 Y50.23 E0.01679
G1 X54.582 Y49.989 E0.02249
G1 X55.027 Y49.814 E0.0183
G1 X55.814 Y49.546 E0.03182
G1 X55.979 Y49.493 E0.00663
G1 X56.679 Y49.281 E0.02799
G1 X57.255 Y49.143 E0.02267
G1 X57.964 Y49.016 E0.02757
G1 X58.597 Y48.943 E0.02439
G1 X59.351 Y48.904 E0.02889
G1 X59.585 Y48.897 E0.00896
G1 X60.128 Y48.894 E0.02078
G1 X60.532 Y48.908 E0.01547
G1 X61.043 Y48.946 E0.01961
G1 X61.294 Y48.971 E0.00965
G1 X61.569 Y49.005 E0.0106
G1 X61.723 Y49.004 E0.00589
G1 X61.925 Y48.995 E0.00774
G1 X62.562 Y49.007 E0.02438
G1 X62.88 Y49.044 E0.01225
G1 X63.261 Y49.1 E0.01474
G1 X63.637 Y49.136 E0.01446
G1 X63.667 Y49.139 E0.00115
G1 X64.521 Y49.226 E0.03285
G1 X65.321 Y49.272 E0.03067
G1 X65.415 Y49.268 E0.0036
G1 X66.062 Y49.196 E0.02491
G1 X66.999 Y49.179 E0.03586
G1 X67.668 Y49.229 E0.02567
G1 X68.301 Y49.317 E0.02446
G1 X68.837 Y49.426 E0.02093
G1 X69.452 Y49.592 E0.02438
G1 X70.042 Y49.833 E0.02439
G1 X70.596 Y50.147 E0.02437
G1 X71.009 Y50.446 E0.01951
G1 X71.122 Y50.537 E0.00555
G1 X71.592 Y50.967 E0.02438
G1 X72.005 Y51.452 E0.02438
G1 X72.353 Y51.986 E0.02439
G1 X72.632 Y52.558 E0.02436
G1 X72.907 Y53.456 E0.03594
G1 X72.958 Y53.701 E0.00958
G1 X73.049 Y54.331 E0.02436
G1 X73.06 Y54.968 E0.02438
G1 X72.991 Y55.601 E0.02437
G1 X72.843 Y56.221 E0.02439
G1 X72.611 Y56.834 E0.02508
G1 X72.403 Y57.292 E0.01925
G1 X72.104 Y57.854 E0.02436
G1 X71.736 Y58.374 E0.02438
G1 X71.449 Y58.701 E0.01665
G1 X71.095 Y59.071 E0.0196
G1 X70.627 Y59.503 E0.02437
G1 X70.14 Y59.85 E0.02288
G1 X70.428 Y60.126 E0.01527
G1 X70.829 Y60.621 E0.02438
G1 X71.036 Y60.936 E0.01442
G1 X71.301 Y61.374 E0.01959
G1 X71.596 Y61.938 E0.02436
G1 X71.818 Y62.535 E0.02438
G1 X71.963 Y63.155 E0.02437
G1 X72.03 Y63.789 E0.0244
G1 X72.027 Y64.26 E0.01803
G1 X71.996 Y64.866 E0.02322
G1 X71.924 Y65.499 E0.02438
G1 X71.773 Y66.118 E0.02438
G1 X71.546 Y66.713 E0.02437
G1 X71.246 Y67.274 E0.02435
G1 X70.984 Y67.657 E0.01776
G1 X70.626 Y68.133 E0.02279
G1 X70.212 Y68.617 E0.02437
G1 X69.741 Y69.046 E0.02438
G1 X69.219 Y69.412 E0.0244
G1 X68.656 Y69.709 E0.02436
G1 X68.06 Y69.934 E0.02438
G1 X67.636 Y70.045 E0.01677
G1 X67.259 Y70.126 E0.01476
G1 X66.629 Y70.22 E0.02438
G1 X65.993 Y70.235 E0.02435
G1 X65.423 Y70.18 E0.02192
G1 X64.954 Y70.108 E0.01816
G1 X64.332 Y69.972 E0.02437
G1 X63.945 Y69.841 E0.01564
G1 X63.419 Y69.977 E0.02079
G1 X62.739 Y70.161 E0.02696
G1 X61.751 Y70.453 E0.03943
G1 X60.058 Y71.016 E0.06828
G1 X59.913 Y71.062 E0.00582
G1 X59.325 Y71.238 E0.02349
G1 X58.705 Y71.382 E0.02436
G1 X58.071 Y71.447 E0.02439
G1 X57.733 Y71.449 E0.01294
G1 X57.214 Y71.435 E0.01987
G1 X56.58 Y71.378 E0.02436
G1 X55.78 Y71.188 E0.03147
G1 X55.565 Y71.118 E0.00865
G1 X54.973 Y70.883 E0.02438
G1 X54.415 Y70.576 E0.02437
G1 X53.9 Y70.201 E0.02438
G1 X53.406 Y69.733 E0.02604
G1 X53.338 Y69.659 E0.00385
G1 X53.101 Y69.554 E0.00992
G1 X52.64 Y69.331 E0.0196
G1 X52.085 Y69.018 E0.02438
G1 X51.747 Y68.778 E0.01586
G1 X51.32 Y68.448 E0.02065
G1 X50.841 Y68.027 E0.02441
G1 X50.319 Y67.417 E0.03073
G1 X50.175 Y67.219 E0.00937
G1 X49.833 Y66.681 E0.0244
G1 X49.562 Y66.105 E0.02436
G1 X49.364 Y65.5 E0.02436
G1 X49.302 Y65.215 E0.01116
G1 X49.299 Y65.21 E0.00022
G1 X49.111 Y64.963 E0.01188
G1 X48.757 Y64.433 E0.02439
G1 X48.473 Y63.863 E0.02437
G1 X48.272 Y63.295 E0.02306
G1 X48.132 Y62.81 E0.01932
G1 X48.119 Y62.759 E0.00201
G1 X48.079 Y62.671 E0.0037
G1 X47.839 Y62.035 E0.02602
G1 X47.642 Y61.385 E0.02599
G1 X47.529 Y60.94 E0.01757
G1 X47.498 Y60.79 E0.00586
G1 X47.409 Y60.16 E0.02435
G1 X47.424 Y59.207 E0.03648
G1 X47.467 Y58.817 E0.01502
G1 X47.632 Y57.978 E0.03272
G1 X47.831 Y57.282 E0.0277
G1 X48.074 Y56.612 E0.02728
G1 X48.274 Y56.162 E0.01885
G1 X48.59 Y55.41 E0.03122
G1 X48.911 Y54.774 E0.02726
G1 X49.168 Y54.343 E0.0192
G1 X49.701 Y53.607 E0.03478
G1 X49.903 Y53.375 E0.01177
G0 F1620 X50.034 Y53.225
G0 X50.377 Y52.869
G0 F4320 X50.617 Y53.124
G1 F1800 X51.203 Y52.571 E0.03084
G1 X51.652 Y52.196 E0.02239
G1 X52.851 Y51.317 E0.0569
G1 X53.342 Y51.002 E0.02233
G1 X53.824 Y50.733 E0.02112
G1 X54.189 Y50.55 E0.01563
G1 X54.725 Y50.309 E0.02249
G1 X55.14 Y50.145 E0.01708
G1 X55.927 Y49.877 E0.03182
G1 X56.08 Y49.828 E0.00615
G1 X56.78 Y49.616 E0.02799
G1 X57.317 Y49.487 E0.02114
G1 X58.026 Y49.36 E0.02757
G1 X58.615 Y49.292 E0.02269
G1 X59.369 Y49.253 E0.02889
G1 X59.587 Y49.247 E0.00835
G1 X60.13 Y49.244 E0.02078
G1 X60.506 Y49.257 E0.0144
G1 X61.017 Y49.295 E0.01961
G1 X61.251 Y49.318 E0.009
G1 X61.552 Y49.356 E0.01161
G1 X61.71 Y49.354 E0.00605
G1 X61.94 Y49.344 E0.00881
G1 X62.829 Y49.39 E0.03407
G1 X63.216 Y49.447 E0.01497
G1 X63.604 Y49.484 E0.01492
G1 X63.632 Y49.487 E0.00108
G1 X64.512 Y49.576 E0.03385
G1 X65.308 Y49.623 E0.03052
G1 X65.452 Y49.616 E0.00552
G1 X66.1 Y49.544 E0.02495
G1 X66.973 Y49.528 E0.03342
G1 X67.642 Y49.578 E0.02567
G1 X68.232 Y49.66 E0.0228
G1 X68.768 Y49.769 E0.02093
G1 X69.361 Y49.93 E0.02352
G1 X69.928 Y50.167 E0.02352
G1 X70.459 Y50.476 E0.02351
G1 X70.79 Y50.719 E0.01571
G1 X70.903 Y50.81 E0.00555
G1 X71.355 Y51.226 E0.02351
G1 X71.75 Y51.697 E0.02352
G1 X72.08 Y52.215 E0.0235
G1 X72.34 Y52.771 E0.02349
G1 X72.565 Y53.527 E0.03019
G1 X72.616 Y53.772 E0.00958
G1 X72.702 Y54.381 E0.02354
G1 X72.708 Y54.995 E0.0235
G1 X72.634 Y55.605 E0.02352
G1 X72.482 Y56.2 E0.0235
G1 X72.292 Y56.689 E0.02008
G1 X72.084 Y57.147 E0.01925
G1 X71.794 Y57.689 E0.02352
G1 X71.436 Y58.188 E0.0235
G1 X71.196 Y58.459 E0.01385
G1 X70.842 Y58.829 E0.0196
G1 X70.389 Y59.245 E0.02354
G1 X69.929 Y59.572 E0.0216
G1 X69.548 Y59.81 E0.01719
G1 X69.775 Y59.981 E0.01088
G1 X70.214 Y60.411 E0.02352
G1 X70.737 Y61.117 E0.03362
G1 X71.002 Y61.555 E0.01959
G1 X71.285 Y62.1 E0.0235
G1 X71.495 Y62.678 E0.02353
G1 X71.628 Y63.278 E0.02352
G1 X71.683 Y63.89 E0.02352
G1 X71.678 Y64.242 E0.01347
G1 X71.647 Y64.848 E0.02322
G1 X71.576 Y65.459 E0.02354
G1 X71.426 Y66.055 E0.02352
G1 X71.2 Y66.626 E0.0235
G1 X70.902 Y67.163 E0.0235
G1 X70.704 Y67.447 E0.01325
G1 X70.346 Y67.923 E0.02279
G1 X69.946 Y68.389 E0.0235
G1 X69.488 Y68.799 E0.02352
G1 X68.981 Y69.147 E0.02353
G1 X68.433 Y69.425 E0.02352
G1 X67.563 Y69.703 E0.03495
G1 X67.186 Y69.784 E0.01476
G1 X66.578 Y69.873 E0.02352
G1 X65.963 Y69.883 E0.02354
G1 X65.476 Y69.834 E0.01873
G1 X65.007 Y69.762 E0.01816
G1 X64.407 Y69.63 E0.02351
G1 X63.984 Y69.485 E0.01711
G1 X63.961 Y69.476 E0.00095
G1 X63.281 Y69.652 E0.02688
G1 X63.281 Y69.651 E0.00004
G1 X62.644 Y69.823 E0.02525
G1 X61.662 Y70.115 E0.03921
G1 X59.948 Y70.684 E0.06911
G1 X59.813 Y70.727 E0.00542
G1 X59.225 Y70.903 E0.02349
G1 X58.626 Y71.04 E0.02352
G1 X57.743 Y71.099 E0.03387
G1 X57.224 Y71.085 E0.01987
G1 X56.612 Y71.029 E0.02352
G1 X55.888 Y70.855 E0.0285
G1 X55.673 Y70.785 E0.00865
G1 X55.103 Y70.557 E0.02349
G1 X54.566 Y70.257 E0.02354
G1 X54.073 Y69.89 E0.02352
G1 X53.663 Y69.496 E0.02176
G1 X53.544 Y69.367 E0.00672
G1 X53.52 Y69.357 E0.001
G1 X53.253 Y69.238 E0.01119
G1 X52.792 Y69.015 E0.0196
G1 X52.258 Y68.712 E0.0235
G1 X51.961 Y68.501 E0.01394
G1 X51.534 Y68.171 E0.02065
G1 X51.073 Y67.764 E0.02353
G1 X50.602 Y67.211 E0.0278
G1 X50.458 Y67.013 E0.00937
G1 X50.129 Y66.494 E0.02352
G1 X49.871 Y65.936 E0.02353
G1 X49.631 Y65.078 E0.0341
G1 X49.584 Y65.006 E0.00329
G1 X49.389 Y64.751 E0.01229
G1 X49.049 Y64.239 E0.02352
G1 X48.779 Y63.687 E0.02352
G1 X48.608 Y63.198 E0.01983
G1 X48.468 Y62.713 E0.01932
G1 X48.449 Y62.636 E0.00304
G1 X48.398 Y62.525 E0.00467
G1 X48.174 Y61.933 E0.02422
G1 X47.977 Y61.283 E0.02599
G1 X47.872 Y60.869 E0.01635
G1 X47.841 Y60.719 E0.00586
G1 X47.756 Y60.111 E0.02349
G1 X47.771 Y59.245 E0.03315
G1 X47.814 Y58.855 E0.01502
G1 X47.968 Y58.074 E0.03046
G1 X48.167 Y57.378 E0.0277
G1 X48.394 Y56.754 E0.02541
G1 X48.595 Y56.302 E0.01893
G1 X48.913 Y55.545 E0.03142
G1 X49.212 Y54.953 E0.02538
G1 X49.469 Y54.522 E0.0192
G1 X49.965 Y53.837 E0.03237
G1 X50.144 Y53.632 E0.01042
G0 F1620 X50.298 Y53.455
G0 X50.617 Y53.124
G0 F4320 X50.857 Y53.378
G1 F1800 X51.443 Y52.825 E0.03084
G1 X51.859 Y52.479 E0.02071
G1 X53.058 Y51.6 E0.0569
G1 X53.513 Y51.308 E0.02069
G1 X53.995 Y51.039 E0.02112
G1 X54.333 Y50.869 E0.01448
G1 X54.869 Y50.628 E0.02249
G1 X55.253 Y50.477 E0.01579
G1 X56.04 Y50.209 E0.03182
G1 X56.182 Y50.163 E0.00571
G1 X56.882 Y49.951 E0.02799
G1 X57.379 Y49.832 E0.01956
G1 X58.088 Y49.705 E0.02757
G1 X58.633 Y49.642 E0.021
G1 X59.387 Y49.603 E0.02889
G1 X59.589 Y49.597 E0.00773
G1 X60.132 Y49.594 E0.02078
G1 X60.48 Y49.606 E0.01333
G1 X60.991 Y49.644 E0.01961
G1 X61.208 Y49.666 E0.00835
G1 X61.528 Y49.706 E0.01234
G1 X61.729 Y49.704 E0.00769
G1 X61.955 Y49.694 E0.00866
G1 X62.779 Y49.737 E0.03158
G1 X63.175 Y49.795 E0.01532
G1 X63.57 Y49.833 E0.01519
G1 X63.596 Y49.835 E0.001
G1 X64.477 Y49.925 E0.03389
G1 X65.314 Y49.973 E0.03208
G1 X65.477 Y49.965 E0.00625
G1 X66.139 Y49.892 E0.02549
G1 X66.947 Y49.877 E0.03093
G1 X67.616 Y49.927 E0.02567
G1 X68.162 Y50.003 E0.0211
G1 X68.698 Y50.112 E0.02093
G1 X69.268 Y50.268 E0.02262
G1 X69.812 Y50.501 E0.02265
G1 X70.319 Y50.804 E0.0226
G1 X70.57 Y50.992 E0.012
G1 X70.683 Y51.083 E0.00555
G1 X71.117 Y51.484 E0.02261
G1 X71.494 Y51.94 E0.02264
G1 X71.805 Y52.442 E0.0226
G1 X72.046 Y52.982 E0.02263
G1 X72.222 Y53.598 E0.02452
G1 X72.273 Y53.843 E0.00958
G1 X72.354 Y54.429 E0.02264
G1 X72.356 Y55.02 E0.02262
G1 X72.277 Y55.606 E0.02263
G1 X72.121 Y56.177 E0.02265
G1 X71.973 Y56.544 E0.01514
G1 X71.765 Y57.002 E0.01925
G1 X71.485 Y57.523 E0.02264
G1 X70.943 Y58.217 E0.0337
G1 X70.589 Y58.587 E0.0196
G1 X70.153 Y58.986 E0.02262
G1 X69.744 Y59.275 E0.01917
G1 X69.3 Y59.552 E0.02003
G1 X69.169 Y59.63 E0.00583
G1 X68.89 Y59.791 E0.01233
G1 X69.111 Y59.916 E0.00972
G1 X69.581 Y60.276 E0.02266
G1 X69.998 Y60.695 E0.02262
G1 X70.437 Y61.298 E0.02854
G1 X70.702 Y61.736 E0.01959
G1 X70.973 Y62.262 E0.02264
G1 X71.171 Y62.819 E0.02262
G1 X71.292 Y63.398 E0.02264
G1 X71.328 Y64.225 E0.03168
G1 X71.297 Y64.831 E0.02322
G1 X71.227 Y65.418 E0.02262
G1 X71.079 Y65.99 E0.02261
G1 X70.854 Y66.537 E0.02264
G1 X70.424 Y67.237 E0.03144
G1 X70.066 Y67.713 E0.02279
G1 X69.68 Y68.16 E0.0226
G1 X69.237 Y68.551 E0.02261
G1 X68.745 Y68.879 E0.02263
G1 X68.213 Y69.138 E0.02264
G1 X67.489 Y69.36 E0.02898
G1 X67.112 Y69.441 E0.01476
G1 X66.527 Y69.526 E0.02262
G1 X65.936 Y69.531 E0.02262
G1 X65.529 Y69.488 E0.01566
G1 X65.06 Y69.416 E0.01816
G1 X64.483 Y69.287 E0.02263
G1 X64.113 Y69.159 E0.01498
G1 X63.984 Y69.108 E0.00531
G1 X63.965 Y69.113 E0.00075
G1 X63.236 Y69.302 E0.02882
G1 X62.528 Y69.493 E0.02806
G1 X61.544 Y69.785 E0.03928
G1 X59.837 Y70.352 E0.06884
G1 X59.713 Y70.391 E0.00497
G1 X59.125 Y70.567 E0.02349
G1 X58.548 Y70.698 E0.02264
G1 X57.752 Y70.749 E0.03053
G1 X57.233 Y70.735 E0.01987
G1 X56.644 Y70.68 E0.02264
G1 X55.997 Y70.522 E0.02549
G1 X55.782 Y70.452 E0.00865
G1 X55.233 Y70.231 E0.02265
G1 X54.719 Y69.939 E0.02262
G1 X54.25 Y69.58 E0.0226
G1 X53.92 Y69.259 E0.01762
G1 X53.749 Y69.073 E0.00967
G1 X53.653 Y69.034 E0.00397
G1 X53.406 Y68.923 E0.01036
G1 X52.945 Y68.7 E0.0196
G1 X52.431 Y68.408 E0.02262
G1 X52.175 Y68.224 E0.01207
G1 X51.748 Y67.894 E0.02065
G1 X51.305 Y67.501 E0.02266
G1 X50.885 Y67.005 E0.02487
G1 X50.741 Y66.807 E0.00937
G1 X50.426 Y66.307 E0.02262
G1 X50.182 Y65.768 E0.02264
G1 X49.973 Y65.007 E0.0302
G1 X49.962 Y64.944 E0.00245
G1 X49.869 Y64.803 E0.00646
G1 X49.668 Y64.539 E0.0127
G1 X49.342 Y64.045 E0.02265
G1 X49.086 Y63.512 E0.02263
G1 X48.945 Y63.101 E0.01663
G1 X48.805 Y62.616 E0.01932
G1 X48.782 Y62.524 E0.00363
G1 X48.716 Y62.38 E0.00606
G1 X48.509 Y61.832 E0.02242
G1 X48.312 Y61.182 E0.02599
G1 X48.215 Y60.798 E0.01516
G1 X48.184 Y60.648 E0.00586
G1 X48.103 Y60.063 E0.0226
G1 X48.119 Y59.284 E0.02982
G1 X48.162 Y58.894 E0.01502
G1 X48.305 Y58.17 E0.02824
G1 X48.504 Y57.474 E0.0277
G1 X48.714 Y56.896 E0.02353
G1 X48.917 Y56.441 E0.01907
G1 X49.236 Y55.68 E0.03158
G1 X49.512 Y55.132 E0.02348
G1 X49.769 Y54.701 E0.0192
G1 X50.229 Y54.067 E0.02998
G1 X50.385 Y53.888 E0.00909
G0 F1620 X50.562 Y53.685
G0 X50.857 Y53.378
G0 F4320 X51.098 Y53.633
G1 F1800 X51.684 Y53.08 E0.03084
G1 X52.066 Y52.761 E0.01905
G1 X53.265 Y51.882 E0.0569
G1 X53.683 Y51.613 E0.01902
G1 X54.165 Y51.344 E0.02112
G1 X54.476 Y51.188 E0.01332
G1 X55.012 Y50.947 E0.02249
G1 X55.366 Y50.808 E0.01455
G1 X56.153 Y50.54 E0.03182
G1 X56.283 Y50.498 E0.00523
G1 X56.983 Y50.286 E0.02799
G1 X57.44 Y50.176 E0.01799
G1 X58.149 Y50.049 E0.02757
G1 X58.651 Y49.991 E0.01934
G1 X59.405 Y49.952 E0.02889
G1 X59.591 Y49.947 E0.00712
G1 X60.134 Y49.944 E0.02078
G1 X60.454 Y49.955 E0.01225
G1 X60.965 Y49.993 E0.01961
G1 X61.165 Y50.013 E0.00769
G1 X61.511 Y50.056 E0.01334
G1 X61.748 Y50.054 E0.00907
G1 X61.97 Y50.044 E0.0085
G1 X62.728 Y50.083 E0.02905
G1 X63.129 Y50.142 E0.01551
G1 X63.537 Y50.181 E0.01569
G1 X63.561 Y50.184 E0.00093
G1 X64.445 Y50.274 E0.03401
G1 X65.301 Y50.323 E0.03281
G1 X65.501 Y50.314 E0.00766
G1 X66.178 Y50.239 E0.02607
G1 X66.921 Y50.226 E0.02844
G1 X67.59 Y50.276 E0.02567
G1 X68.092 Y50.346 E0.0194
G1 X68.628 Y50.455 E0.02093
G1 X69.174 Y50.607 E0.02169
G1 X69.694 Y50.834 E0.02171
G1 X70.351 Y51.264 E0.03005
G1 X70.464 Y51.355 E0.00555
G1 X70.879 Y51.741 E0.02169
G1 X71.236 Y52.182 E0.02171
G1 X71.528 Y52.668 E0.0217
G1 X71.748 Y53.19 E0.02168
G1 X71.88 Y53.67 E0.01905
G1 X71.931 Y53.915 E0.00958
G1 X72.007 Y54.477 E0.0217
G1 X72.003 Y55.044 E0.0217
G1 X71.92 Y55.605 E0.0217
G1 X71.655 Y56.399 E0.03203
G1 X71.447 Y56.857 E0.01925
G1 X71.176 Y57.356 E0.02173
G1 X70.69 Y57.976 E0.03015
G1 X70.336 Y58.346 E0.0196
G1 X69.916 Y58.727 E0.0217
G1 X69.558 Y58.978 E0.01673
G1 X69.114 Y59.255 E0.02003
G1 X68.994 Y59.327 E0.00536
G1 X68.418 Y59.659 E0.02544
G1 X68.316 Y59.716 E0.00447
G1 X68.159 Y59.801 E0.00683
G1 X68.445 Y59.939 E0.01215
G1 X68.937 Y60.221 E0.0217
G1 X69.384 Y60.569 E0.02168
G1 X69.778 Y60.977 E0.02171
G1 X70.138 Y61.479 E0.02364
G1 X70.403 Y61.917 E0.01959
G1 X70.661 Y62.422 E0.0217
G1 X70.847 Y62.958 E0.02171
G1 X70.955 Y63.515 E0.02171
G1 X70.979 Y64.207 E0.0265
G1 X70.948 Y64.813 E0.02322
G1 X70.879 Y65.376 E0.02171
G1 X70.732 Y65.923 E0.02168
G1 X70.509 Y66.445 E0.02172
G1 X70.145 Y67.026 E0.02624
G1 X69.787 Y67.502 E0.02279
G1 X69.415 Y67.93 E0.0217
G1 X68.986 Y68.302 E0.02173
G1 X68.51 Y68.61 E0.0217
G1 X67.995 Y68.847 E0.0217
G1 X67.415 Y69.018 E0.02314
G1 X67.038 Y69.099 E0.01476
G1 X66.477 Y69.179 E0.02169
G1 X65.91 Y69.179 E0.0217
G1 X65.582 Y69.142 E0.01263
G1 X65.113 Y69.07 E0.01816
G1 X64.56 Y68.945 E0.0217
G1 X64.241 Y68.834 E0.01293
G1 X64.003 Y68.74 E0.00979
G1 X63.925 Y68.761 E0.00309
G1 X63.877 Y68.774 E0.0019
G1 X63.145 Y68.964 E0.02894
G1 X62.423 Y69.159 E0.02862
G1 X61.454 Y69.446 E0.03868
G1 X59.727 Y70.02 E0.06965
G1 X59.612 Y70.056 E0.00461
G1 X59.024 Y70.232 E0.02349
G1 X58.471 Y70.356 E0.02169
G1 X57.761 Y70.4 E0.02722
G1 X57.242 Y70.386 E0.01987
G1 X56.678 Y70.33 E0.02169
G1 X56.105 Y70.189 E0.02258
G1 X55.89 Y70.119 E0.00865
G1 X55.364 Y69.906 E0.02172
G1 X54.874 Y69.621 E0.02169
G1 X54.429 Y69.27 E0.02169
G1 X54.178 Y69.021 E0.01353
G1 X53.955 Y68.78 E0.01257
G1 X53.785 Y68.71 E0.00704
G1 X53.558 Y68.608 E0.00952
G1 X53.097 Y68.385 E0.0196
G1 X52.389 Y67.947 E0.03186
G1 X51.962 Y67.617 E0.02065
