;FLAVOR:RepRap
;TIME:1502
;Filament used: 0.212484m
;Layer height: 0.04375
;MINX:46.797
;MINY:38.502
;MINZ:0.263
;MAXX:73.188
;MAXY:81.369
;MAXZ:2.463
;Generated with Cura_SteamEngine 4.3.0
T0
M190 S65
M104 S205
M109 S205
M82 ;absolute extrusion mode
G21        ;metric values
G90        ;absolute positioning
M82        ;set extruder to absolute mode
M107       ;start with the fan off
G28 X0 Y0  ;move X/Y to min endstops
G28 Z0     ;move Z to min endstops
G1 Z15.0 F6000 ;move the platform down 15mm
G92 E0                  ;zero the extruded length
G1 F200 E3              ;extrude 3mm of feed stock
G92 E0                  ;zero the extruded length again
G1 F6000
M117 Printing...
M83 ;relative extrusion mode
G1 F2400 E-2.5
;LAYER_COUNT:51
;LAYER:0
M107
G0 F4320 X54.337 Y42.109 Z0.263
;TYPE:SKIRT
G1 F2400 E2.5
G1 F1800 X54.781 Y41.652 E0.02438
G1 X55.025 Y41.457 E0.01195
G1 X55.04 Y41.43 E0.00118
G1 X55.387 Y40.896 E0.02437
G1 X55.798 Y40.41 E0.02436
G1 X56.109 Y40.113 E0.01646
G1 X56.373 Y39.881 E0.01345
G1 X56.877 Y39.491 E0.02439
G1 X57.425 Y39.168 E0.02434
G1 X58.015 Y38.914 E0.02458
G1 X58.348 Y38.795 E0.01353
G1 X58.96 Y38.619 E0.02437
G1 X59.589 Y38.52 E0.02437
G1 X60.226 Y38.502 E0.02439
G1 X60.685 Y38.538 E0.01762
G1 X60.925 Y38.568 E0.00926
G1 X61.551 Y38.687 E0.02439
G1 X62.157 Y38.883 E0.02437
G1 X62.734 Y39.153 E0.02438
G1 X63.445 Y39.624 E0.03264
G1 X63.608 Y39.753 E0.00796
G1 X64.082 Y40.179 E0.02439
G1 X64.499 Y40.661 E0.02439
G1 X64.852 Y41.191 E0.02437
G1 X65.004 Y41.476 E0.01236
G1 X65.15 Y41.77 E0.01256
G1 X65.359 Y42.273 E0.02085
G1 X65.828 Y42.824 E0.02769
G1 X65.946 Y42.988 E0.00773
G1 X66.346 Y43.306 E0.01956
G1 X66.695 Y43.653 E0.01883
G1 X66.971 Y43.956 E0.01569
G1 X67.369 Y44.453 E0.02437
G1 X67.702 Y44.996 E0.02438
G1 X67.919 Y45.459 E0.01957
G1 X68.005 Y45.671 E0.00876
G1 X68.295 Y46.002 E0.01684
G1 X68.557 Y46.377 E0.01751
G1 X68.748 Y46.678 E0.01364
G1 X69.055 Y47.236 E0.02437
G1 X69.224 Y47.698 E0.01883
G1 X69.241 Y47.718 E0.001
G1 X69.474 Y48.06 E0.01584
G1 X69.685 Y48.399 E0.01528
G1 X70.075 Y49.167 E0.03296
G1 X70.187 Y49.296 E0.00654
G1 X70.572 Y49.803 E0.02436
G1 X70.891 Y50.355 E0.0244
G1 X71.179 Y51.063 E0.02925
G1 X71.284 Y51.39 E0.01314
G1 X71.44 Y52.008 E0.02439
G1 X71.492 Y52.394 E0.01491
G1 X71.562 Y52.537 E0.00609
G1 X71.727 Y52.91 E0.01561
G1 X71.948 Y53.507 E0.02436
G1 X72.13 Y54.403 E0.03499
G1 X72.161 Y54.684 E0.01082
G1 X72.276 Y54.941 E0.01078
G1 X72.422 Y55.343 E0.01637
G1 X72.602 Y55.954 E0.02438
G1 X72.692 Y56.482 E0.0205
G1 X72.743 Y56.919 E0.01684
G1 X72.94 Y57.404 E0.02003
G1 X73.102 Y58.02 E0.02438
G1 X73.187 Y58.651 E0.02437
G1 X73.188 Y59.343 E0.02648
G1 X73.157 Y59.809 E0.01787
G1 X73.075 Y60.44 E0.02435
G1 X72.991 Y60.8 E0.01415
G1 X72.847 Y61.33 E0.02102
G1 X72.824 Y61.767 E0.01675
G1 X72.791 Y62.1 E0.01281
G1 X72.689 Y62.729 E0.02439
G1 X72.508 Y63.34 E0.02439
G1 X72.312 Y63.805 E0.01931
G1 X72.106 Y64.232 E0.01814
G1 X72.065 Y64.305 E0.0032
G1 X71.921 Y64.887 E0.02294
G1 X71.733 Y65.391 E0.02059
G1 X71.567 Y65.772 E0.0159
G1 X71.276 Y66.339 E0.02439
G1 X71.019 Y66.729 E0.01787
G1 X70.782 Y67.055 E0.01542
G1 X70.534 Y67.355 E0.0149
G1 X70.294 Y67.806 E0.01955
G1 X70.062 Y68.162 E0.01626
G1 X69.681 Y68.673 E0.02439
G1 X69.446 Y68.92 E0.01305
G1 X69.231 Y69.32 E0.01738
G1 X68.861 Y69.839 E0.02439
G1 X68.508 Y70.216 E0.01977
G1 X68.277 Y70.694 E0.02032
G1 X67.93 Y71.228 E0.02437
G1 X67.519 Y71.715 E0.02439
G1 X66.852 Y72.299 E0.03393
G1 X66.35 Y72.666 E0.0238
G1 X66.928 Y75.147 E0.09749
G1 X67.033 Y75.775 E0.02437
G1 X67.059 Y76.412 E0.0244
G1 X67.005 Y77.046 E0.02435
G1 X66.871 Y77.669 E0.02439
G1 X66.661 Y78.27 E0.02436
G1 X66.377 Y78.84 E0.02437
G1 X66.024 Y79.37 E0.02437
G1 X65.608 Y79.852 E0.02437
G1 X65.134 Y80.278 E0.02439
G1 X64.611 Y80.641 E0.02436
G1 X64.046 Y80.936 E0.02439
G1 X63.449 Y81.157 E0.02436
G1 X62.829 Y81.302 E0.02437
G1 X62.196 Y81.369 E0.02436
G1 X61.559 Y81.355 E0.02438
G1 X60.929 Y81.262 E0.02437
G1 X60.316 Y81.091 E0.02436
G1 X59.732 Y80.845 E0.02425
G1 X55.442 Y78.719 E0.18323
G1 X55.415 Y78.706 E0.00115
G1 X55.238 Y78.617 E0.00758
G1 X54.688 Y78.296 E0.02437
G1 X54.183 Y77.908 E0.02437
G1 X53.73 Y77.46 E0.02438
G1 X53.337 Y76.959 E0.02437
G1 X53.01 Y76.413 E0.02436
G1 X52.753 Y75.83 E0.02438
G1 X52.572 Y75.22 E0.02435
G1 X52.469 Y74.591 E0.02439
G1 X52.445 Y73.955 E0.02436
G1 X52.501 Y73.32 E0.0244
G1 X52.636 Y72.698 E0.02436
G1 X52.727 Y72.44 E0.01047
G1 X52.626 Y72.334 E0.0056
G1 X52.247 Y71.823 E0.02435
G1 X52.214 Y71.764 E0.00259
G1 X51.924 Y71.531 E0.01424
G1 X51.544 Y71.145 E0.02073
G1 X51.306 Y70.876 E0.01375
G1 X50.915 Y70.373 E0.02438
G1 X50.59 Y69.826 E0.02435
G1 X50.425 Y69.446 E0.01585
G1 X50.203 Y69.175 E0.01341
G1 X49.831 Y68.658 E0.02438
G1 X49.546 Y68.137 E0.02273
G1 X49.333 Y67.688 E0.01902
G1 X49.096 Y67.097 E0.02437
G1 X48.889 Y66.197 E0.03534
G1 X48.843 Y65.859 E0.01305
G1 X48.822 Y65.571 E0.01105
G1 X48.749 Y65.419 E0.00645
G1 X48.685 Y65.24 E0.00728
G1 X48.419 Y64.866 E0.01756
G1 X48.084 Y64.325 E0.02435
G1 X47.798 Y63.692 E0.02658
G1 X47.619 Y63.209 E0.01971
G1 X47.436 Y62.599 E0.02437
G1 X47.33 Y61.971 E0.02437
G1 X47.306 Y61.605 E0.01404
G1 X47.295 Y61.257 E0.01332
G1 X47.314 Y60.621 E0.02435
G1 X47.339 Y60.465 E0.00605
G1 X47.208 Y60.006 E0.01827
G1 X47.035 Y59.089 E0.03571
G1 X46.983 Y58.537 E0.02122
G1 X46.961 Y58.452 E0.00336
G1 X46.839 Y57.826 E0.02441
G1 X46.797 Y57.191 E0.02435
G1 X46.836 Y56.548 E0.02465
G1 X46.871 Y56.266 E0.01087
G1 X46.989 Y55.64 E0.02438
G1 X47.184 Y55.034 E0.02436
G1 X47.377 Y54.602 E0.01811
G1 X47.419 Y54.52 E0.00353
G1 X47.434 Y54.413 E0.00413
G1 X47.664 Y53.632 E0.03116
G1 X47.875 Y53.083 E0.02251
G1 X47.983 Y52.858 E0.00955
G1 X48 Y52.527 E0.01268
G1 X48.118 Y51.874 E0.0254
G1 X48.201 Y51.54 E0.01317
G1 X48.393 Y50.933 E0.02436
G1 X48.706 Y50.27 E0.02806
G1 X48.912 Y49.905 E0.01604
G1 X49.26 Y49.371 E0.02439
G1 X49.712 Y48.843 E0.0266
G1 X49.798 Y48.756 E0.00468
G1 X49.832 Y48.673 E0.00343
G1 X50.018 Y48.33 E0.01493
G1 X50.21 Y48.005 E0.01445
G1 X50.567 Y47.478 E0.02436
G1 X50.725 Y47.304 E0.00899
G1 X50.878 Y46.983 E0.01361
G1 X51.067 Y46.645 E0.01482
G1 X51.413 Y46.11 E0.02438
G1 X51.822 Y45.622 E0.02437
G1 X52.148 Y45.309 E0.0173
G1 X52.175 Y45.286 E0.00136
G1 X52.379 Y44.811 E0.01978
G1 X52.703 Y44.263 E0.02436
G1 X53.234 Y43.605 E0.03236
G1 X53.407 Y43.424 E0.00958
G1 X53.574 Y43.27 E0.00869
G1 X53.776 Y42.89 E0.01647
G1 X53.924 Y42.666 E0.01027
G0 F1620 X53.955 Y42.618
G0 X54.337 Y42.109
G0 F4320 X54.617 Y42.32
G1 F1800 X55.048 Y41.882 E0.02352
G1 X55.294 Y41.69 E0.01194
G1 X55.344 Y41.602 E0.00387
G1 X55.681 Y41.088 E0.02352
G1 X56.081 Y40.622 E0.0235
G1 X56.34 Y40.376 E0.01367
G1 X56.604 Y40.144 E0.01345
G1 X57.091 Y39.769 E0.02352
G1 X57.622 Y39.461 E0.02349
G1 X58.133 Y39.244 E0.02125
G1 X58.466 Y39.125 E0.01353
G1 X59.057 Y38.956 E0.02352
G1 X59.665 Y38.865 E0.02353
G1 X60.279 Y38.854 E0.0235
G1 X60.642 Y38.885 E0.01394
G1 X60.882 Y38.915 E0.00926
G1 X61.486 Y39.031 E0.02354
G1 X62.069 Y39.224 E0.0235
G1 X62.622 Y39.491 E0.0235
G1 X63.228 Y39.899 E0.02796
G1 X63.391 Y40.028 E0.00796
G1 X63.847 Y40.44 E0.02352
G1 X64.246 Y40.907 E0.02351
G1 X64.691 Y41.631 E0.03252
G1 X64.837 Y41.925 E0.01256
G1 X65.057 Y42.457 E0.02203
G1 X65.544 Y43.028 E0.02872
G1 X65.687 Y43.227 E0.00938
G1 X66.143 Y43.594 E0.0224
G1 X66.436 Y43.889 E0.01591
G1 X66.712 Y44.192 E0.01569
G1 X67.095 Y44.672 E0.0235
G1 X67.413 Y45.198 E0.02352
G1 X67.595 Y45.591 E0.01657
G1 X67.702 Y45.854 E0.01087
G1 X68.043 Y46.249 E0.01997
G1 X68.262 Y46.564 E0.01468
G1 X68.453 Y46.865 E0.01364
G1 X68.747 Y47.405 E0.02353
G1 X68.941 Y47.938 E0.02171
G1 X69.176 Y48.245 E0.0148
G1 X69.387 Y48.584 E0.01528
G1 X69.756 Y49.309 E0.03113
G1 X69.774 Y49.354 E0.00185
G1 X69.922 Y49.525 E0.00865
G1 X70.293 Y50.015 E0.02352
G1 X70.597 Y50.549 E0.02352
G1 X70.846 Y51.17 E0.0256
G1 X70.951 Y51.497 E0.01314
G1 X71.1 Y52.093 E0.02351
G1 X71.159 Y52.531 E0.01691
G1 X71.242 Y52.679 E0.00649
G1 X71.407 Y53.052 E0.01561
G1 X71.619 Y53.628 E0.02349
G1 X71.782 Y54.441 E0.03173
G1 X71.818 Y54.767 E0.01255
G1 X71.947 Y55.06 E0.01225
G1 X72.093 Y55.462 E0.01637
G1 X72.265 Y56.052 E0.02352
G1 X72.345 Y56.523 E0.01828
G1 X72.402 Y57.007 E0.01865
G1 X72.614 Y57.535 E0.02177
G1 X72.767 Y58.13 E0.02351
G1 X72.842 Y58.74 E0.02352
G1 X72.839 Y59.32 E0.0222
G1 X72.808 Y59.786 E0.01787
G1 X72.727 Y60.395 E0.02351
G1 X72.653 Y60.708 E0.01231
G1 X72.496 Y61.289 E0.02303
G1 X72.498 Y61.339 E0.00192
G1 X72.476 Y61.733 E0.0151
G1 X72.443 Y62.066 E0.01281
G1 X72.343 Y62.672 E0.02351
G1 X72.165 Y63.26 E0.02351
G1 X71.997 Y63.653 E0.01636
G1 X71.791 Y64.08 E0.01814
G1 X71.726 Y64.195 E0.00506
G1 X71.713 Y64.291 E0.00371
G1 X71.554 Y64.885 E0.02353
G1 X71.412 Y65.251 E0.01502
G1 X71.246 Y65.632 E0.0159
G1 X70.964 Y66.178 E0.02352
G1 X70.736 Y66.523 E0.01583
G1 X70.499 Y66.849 E0.01542
G1 X70.255 Y67.143 E0.01462
G1 X70.001 Y67.615 E0.02051
G1 X69.769 Y67.971 E0.01626
G1 X69.4 Y68.463 E0.02354
G1 X69.17 Y68.704 E0.01275
G1 X69.159 Y68.73 E0.00108
G1 X68.852 Y69.263 E0.02354
G1 X68.478 Y69.751 E0.02353
G1 X68.213 Y70.023 E0.01453
G1 X67.961 Y70.541 E0.02205
G1 X67.623 Y71.054 E0.02351
G1 X67.221 Y71.519 E0.02352
G1 X66.645 Y72.016 E0.02911
G1 X65.999 Y72.489 E0.03064
G1 X65.957 Y72.522 E0.00204
G1 X66.587 Y75.227 E0.10629
G1 X66.687 Y75.833 E0.02351
G1 X66.708 Y76.447 E0.02351
G1 X66.648 Y77.059 E0.02353
G1 X66.51 Y77.657 E0.02349
G1 X66.296 Y78.233 E0.02352
G1 X66.008 Y78.776 E0.02352
G1 X65.652 Y79.277 E0.02352
G1 X65.235 Y79.728 E0.02351
G1 X64.762 Y80.121 E0.02353
G1 X64.242 Y80.449 E0.02353
G1 X63.685 Y80.707 E0.02349
G1 X63.098 Y80.89 E0.02353
G1 X62.493 Y80.996 E0.02351
G1 X61.879 Y81.022 E0.02352
G1 X61.267 Y80.968 E0.02351
G1 X60.667 Y80.835 E0.02352
G1 X59.887 Y80.532 E0.03202
G1 X55.597 Y78.406 E0.18323
G1 X55.572 Y78.393 E0.00108
G1 X55.395 Y78.304 E0.00758
G1 X54.865 Y77.993 E0.02352
G1 X54.38 Y77.616 E0.02351
G1 X53.949 Y77.179 E0.02349
G1 X53.577 Y76.689 E0.02354
G1 X53.272 Y76.156 E0.0235
G1 X53.039 Y75.587 E0.02353
G1 X52.882 Y74.993 E0.02351
G1 X52.803 Y74.384 E0.0235
G1 X52.803 Y73.77 E0.0235
G1 X52.884 Y73.16 E0.02355
G1 X53.043 Y72.567 E0.0235
G1 X53.131 Y72.355 E0.00878
G1 X52.866 Y72.075 E0.01475
G1 X52.505 Y71.578 E0.02351
G1 X52.478 Y71.527 E0.00221
G1 X52.144 Y71.258 E0.01641
G1 X51.806 Y70.913 E0.01848
G1 X51.568 Y70.644 E0.01375
G1 X51.192 Y70.158 E0.02352
G1 X50.882 Y69.628 E0.0235
G1 X50.729 Y69.266 E0.01504
G1 X50.474 Y68.954 E0.01542
G1 X50.116 Y68.454 E0.02353
G1 X49.862 Y67.987 E0.02034
G1 X49.649 Y67.538 E0.01902
G1 X49.422 Y66.967 E0.02352
G1 X49.236 Y66.15 E0.03207
G1 X49.19 Y65.812 E0.01305
G1 X49.167 Y65.48 E0.01274
G1 X49.065 Y65.267 E0.00904
G1 X48.997 Y65.076 E0.00776
G1 X48.704 Y64.663 E0.01938
G1 X48.382 Y64.14 E0.0235
G1 X48.126 Y63.57 E0.02391
G1 X47.947 Y63.087 E0.01971
G1 X47.772 Y62.498 E0.02351
G1 X47.655 Y61.594 E0.03488
G1 X47.644 Y61.246 E0.01332
G1 X47.665 Y60.632 E0.02351
G1 X47.699 Y60.455 E0.0069
G1 X47.544 Y59.91 E0.02168
G1 X47.384 Y59.056 E0.03325
G1 X47.33 Y58.482 E0.02206
G1 X47.299 Y58.363 E0.00471
G1 X47.184 Y57.76 E0.02349
G1 X47.147 Y57.147 E0.0235
G1 X47.183 Y56.591 E0.02132
G1 X47.218 Y56.309 E0.01087
G1 X47.333 Y55.705 E0.02353
G1 X47.526 Y55.122 E0.0235
G1 X47.69 Y54.76 E0.01521
G1 X47.757 Y54.628 E0.00567
G1 X47.781 Y54.464 E0.00634
G1 X47.991 Y53.758 E0.02819
G1 X48.202 Y53.209 E0.02251
G1 X48.329 Y52.944 E0.01125
G1 X48.35 Y52.545 E0.01529
G1 X48.457 Y51.958 E0.02283
G1 X48.54 Y51.624 E0.01317
G1 X48.727 Y51.039 E0.0235
G1 X49.011 Y50.442 E0.0253
G1 X49.217 Y50.077 E0.01604
G1 X49.553 Y49.562 E0.02353
G1 X49.961 Y49.088 E0.02393
G1 X50.097 Y48.949 E0.00744
G1 X50.165 Y48.789 E0.00665
G1 X50.319 Y48.508 E0.01226
G1 X50.511 Y48.183 E0.01445
G1 X50.857 Y47.675 E0.02352
G1 X51.019 Y47.497 E0.00921
G1 X51.184 Y47.154 E0.01457
G1 X51.373 Y46.816 E0.01482
G1 X51.707 Y46.3 E0.02352
G1 X52.105 Y45.832 E0.02351
G1 X52.379 Y45.572 E0.01446
G1 X52.463 Y45.498 E0.00428
G1 X52.701 Y44.951 E0.02283
G1 X53.017 Y44.424 E0.02352
G1 X53.487 Y43.847 E0.02848
G1 X53.66 Y43.666 E0.00958
G1 X53.849 Y43.493 E0.00981
G1 X54.068 Y43.083 E0.01779
G1 X54.203 Y42.877 E0.00943
G0 F1620 X54.247 Y42.811
G0 X54.617 Y42.32
G0 F4320 X54.897 Y42.532
G1 F1800 X55.315 Y42.114 E0.02262
G1 X55.564 Y41.924 E0.01199
G1 X55.649 Y41.774 E0.0066
G1 X55.974 Y41.28 E0.02263
G1 X56.571 Y40.639 E0.03352
G1 X56.835 Y40.407 E0.01345
G1 X57.304 Y40.047 E0.02263
G1 X57.818 Y39.754 E0.02264
G1 X58.251 Y39.573 E0.01796
G1 X58.584 Y39.454 E0.01353
G1 X59.153 Y39.293 E0.02263
G1 X59.738 Y39.211 E0.02261
G1 X60.599 Y39.233 E0.03296
G1 X60.839 Y39.263 E0.00926
G1 X61.419 Y39.376 E0.02261
G1 X61.979 Y39.566 E0.02263
G1 X62.508 Y39.829 E0.02261
G1 X63.011 Y40.173 E0.02332
G1 X63.174 Y40.302 E0.00796
G1 X63.612 Y40.7 E0.02265
G1 X63.992 Y41.153 E0.02263
G1 X64.377 Y41.787 E0.02839
G1 X64.523 Y42.081 E0.01256
G1 X64.751 Y42.631 E0.02279
G1 X64.758 Y42.651 E0.00081
G1 X64.801 Y42.694 E0.00233
G1 X65.26 Y43.233 E0.02709
G1 X65.44 Y43.483 E0.01179
G1 X65.481 Y43.508 E0.00184
G1 X65.939 Y43.882 E0.02263
G1 X66.177 Y44.125 E0.01302
G1 X66.453 Y44.428 E0.01569
G1 X66.821 Y44.891 E0.02263
G1 X67.123 Y45.399 E0.02262
G1 X67.27 Y45.723 E0.01362
G1 X67.397 Y46.035 E0.01289
G1 X67.408 Y46.045 E0.00057
G1 X67.791 Y46.496 E0.02264
G1 X67.966 Y46.752 E0.01187
G1 X68.157 Y47.053 E0.01364
G1 X68.439 Y47.572 E0.0226
G1 X68.628 Y48.097 E0.02135
G1 X68.879 Y48.43 E0.01596
G1 X69.09 Y48.769 E0.01528
G1 X69.432 Y49.44 E0.02882
G1 X69.474 Y49.544 E0.00429
G1 X69.485 Y49.555 E0.0006
G1 X69.657 Y49.754 E0.01007
G1 X70.013 Y50.227 E0.02266
G1 X70.301 Y50.743 E0.02261
G1 X70.513 Y51.277 E0.02199
G1 X70.618 Y51.604 E0.01314
G1 X70.76 Y52.178 E0.02263
G1 X70.812 Y52.577 E0.0154
G1 X70.816 Y52.63 E0.00203
G1 X70.922 Y52.82 E0.00833
G1 X71.087 Y53.193 E0.01561
G1 X71.289 Y53.749 E0.02264
G1 X71.434 Y54.48 E0.02852
G1 X71.475 Y54.846 E0.01409
G1 X71.618 Y55.18 E0.0139
G1 X71.764 Y55.582 E0.01637
G1 X71.928 Y56.15 E0.02263
G1 X71.997 Y56.564 E0.01606
G1 X72.059 Y57.094 E0.02042
G1 X72.07 Y57.116 E0.00094
G1 X72.289 Y57.665 E0.02262
G1 X72.431 Y58.239 E0.02263
G1 X72.495 Y58.827 E0.02264
G1 X72.489 Y59.296 E0.01795
G1 X72.458 Y59.762 E0.01787
G1 X72.316 Y60.617 E0.03317
G1 X72.143 Y61.256 E0.02533
G1 X72.148 Y61.379 E0.00471
G1 X72.128 Y61.698 E0.01223
G1 X72.095 Y62.031 E0.01281
G1 X71.997 Y62.615 E0.02266
G1 X71.821 Y63.179 E0.02261
G1 X71.681 Y63.501 E0.01344
G1 X71.475 Y63.928 E0.01814
G1 X71.385 Y64.086 E0.00696
G1 X71.351 Y64.31 E0.00867
G1 X71.091 Y65.112 E0.03227
G1 X70.925 Y65.493 E0.0159
G1 X70.653 Y66.017 E0.02259
G1 X70.453 Y66.318 E0.01383
G1 X70.216 Y66.644 E0.01542
G1 X69.976 Y66.93 E0.01429
G1 X69.707 Y67.424 E0.02153
G1 X69.475 Y67.78 E0.01626
G1 X69.12 Y68.252 E0.0226
G1 X68.862 Y68.519 E0.01421
G1 X68.784 Y68.695 E0.00737
G1 X68.471 Y69.197 E0.02264
G1 X67.921 Y69.818 E0.03175
G1 X67.906 Y69.856 E0.00156
G1 X67.646 Y70.387 E0.02263
G1 X67.317 Y70.878 E0.02262
G1 X66.924 Y71.321 E0.02266
G1 X66.438 Y71.734 E0.02441
G1 X65.785 Y72.212 E0.03097
G1 X65.577 Y72.38 E0.01023
G1 X65.567 Y72.389 E0.00051
G1 X66.246 Y75.306 E0.11462
G1 X66.341 Y75.89 E0.02264
G1 X66.356 Y76.481 E0.02262
G1 X66.292 Y77.068 E0.0226
G1 X66.148 Y77.642 E0.02265
G1 X65.929 Y78.191 E0.02262
G1 X65.638 Y78.706 E0.02264
G1 X65.28 Y79.176 E0.02261
G1 X64.862 Y79.594 E0.02262
G1 X64.391 Y79.952 E0.02264
G1 X63.876 Y80.243 E0.02264
G1 X63.327 Y80.462 E0.02262
G1 X62.753 Y80.605 E0.02264
G1 X62.166 Y80.669 E0.0226
G1 X61.575 Y80.654 E0.02262
G1 X60.991 Y80.559 E0.02264
G1 X60.426 Y80.386 E0.02261
G1 X60.042 Y80.218 E0.01604
G1 X55.752 Y78.092 E0.18323
G1 X55.73 Y78.081 E0.00094
G1 X55.553 Y77.992 E0.00758
G1 X55.044 Y77.691 E0.02263
G1 X54.58 Y77.324 E0.02264
G1 X54.169 Y76.899 E0.02263
G1 X53.82 Y76.421 E0.02265
G1 X53.539 Y75.901 E0.02262
G1 X53.33 Y75.348 E0.02262
G1 X53.198 Y74.772 E0.02261
G1 X53.144 Y74.183 E0.02264
G1 X53.171 Y73.592 E0.02264
G1 X53.276 Y73.011 E0.0226
G1 X53.46 Y72.449 E0.02263
G1 X53.544 Y72.278 E0.00729
G1 X53.51 Y72.25 E0.00169
